!!!!SEGMENT: pl-sa--80-a-ii-20--004_bohdanowicz-bazyli--symfonia-ex-d-presto-moderato.krn
!!!cenid: 17xx:336
!!!COM: Bohdanowicz, Bazyli
!!!COM-rismid: pe30009893
!!!CDT: 1740-1817
!!!CNT: Polish
!!!OPR: Symfonia ex D
!!!OTL: Presto moderato
!!!OMV: 004
!!!PDT:
!!!AGN:
!!!SMS-siglum: PL-SA
!!!SMS-shelfmark: 80/A II 20
!!!SMS-shelfwork: 001-004 M
!!!NIFC-rismid: 1001034987
!!!URL-scan: http://bc.bdsandomierz.pl/dlibra/publication/1358/edition/1326/content
!!!ONB-nifc: UWAGA: części Symfonii: Allegro, Menueto, Polonese, Presto moderato. UWAGA: brak partii altówki
!!!key:
**kern	**dynam	**kern	**dynam	**kern	**dynam	**kern	**dynam	**kern	**dynam	**kern	**dynam	**kern	**dynam
*part7	*part7	*part6	*part6	*part5	*part5	*part4	*part4	*part3	*part3	*part2	*part2	*part1	*part1
*staff7	*	*staff6	*	*staff5	*	*staff4	*	*staff3	*	*staff2	*	*staff1	*
*Ibass	*	*Ivioln	*	*Ivioln	*	*Iempty	*	*Icor	*	*Ioboe	*	*Ioboe	*
*I"Basso	*	*I"Violino 2do	*	*I"Violino Primo	*	*I"Cornu 2do	*	*I"Corno Primo	*	*I"Oboe 2do	*	*I"Oboe Primo	*
*I'b	*	*I'vn 2	*	*I'vn 1	*	*I'cor 2	*	*I'cor 1	*	*I'ob 2	*	*I'ob 1	*
*clefF4	*	*clefG2	*	*clefG2	*	*clefG2	*	*clefG2	*	*clefG2	*	*clefG2	*
*	*	*	*	*	*	*ITrd6c10	*	*ITrd6c10	*	*	*	*	*
*k[f#c#]	*	*k[f#c#]	*	*k[f#c#]	*	*k[f#c#]	*	*k[f#c#]	*	*k[f#c#]	*	*k[f#c#]	*
*D:	*	*D:	*	*D:	*	*	*	*	*	*D:	*	*D:	*
*M3/8	*	*M3/8	*	*M3/8	*	*M3/8	*	*M3/8	*	*M3/8	*	*M3/8	*
*	*	*	*	*	*	*	*below	*	*	*	*	*	*
=1	=1	=1	=1	=1	=1	=1	=1	=1	=1	=1	=1	=1	=1
!LO:TX:a:t=Presto	!	!LO:TX:a:t=Presto	!	!LO:TX:b:t=Presto Moderato	!	!LO:TX:a:t=Presto Moder&colon;	!	!LO:TX:a:t=Presto moderato	!	!LO:TX:a:t=Presto Moderato	!	!LO:TX:rj:b:t=Presto Moderato	!
8D\L	.	8d/L	.	8d/L	.	8D/L	.	8D/L	.	8d/L	.	8d/L	.
8F#\	.	8f#/	.	8f#/	.	8F#/	.	8F#/	.	8f#/	.	8f#/	.
8A\J	.	8a/J	.	8a/J	.	8A/J	.	8A/J	.	8a/J	.	8a/J	.
=2	=2	=2	=2	=2	=2	=2	=2	=2	=2	=2	=2	=2	=2
8D\L	.	8d/L	.	8d/L	.	8D/L	.	8D/L	.	8d/L	.	8d/L	.
8F#\	.	8f#/	.	8f#/	.	8F#/	.	8F#/	.	8f#/	.	8f#/	.
8A\J	.	8a/J	.	8a/J	.	8A/J	.	8A/J	.	8a/J	.	8a/J	.
=3	=3	=3	=3	=3	=3	=3	=3	=3	=3	=3	=3	=3	=3
!	!	!LO:TX:a:t=P:problem=mixed beam	!	!LO:TX:a:t=P:problem=mixed beam	!	!LO:TX:a:t=P:problem=mixed beam	!	!LO:TX:a:t=P:problem=mixed beam	!	!LO:TX:a:t=P:problem=mixed beam	!	!LO:TX:a:t=P:problem=mixed beam	!
8d\L	.	8dd\L	.	8dd\L	.	8d\L	.	8d\L	.	8dd\L	.	8dd\L	.
8D\	.	8d/	.	8d/	.	8D/	.	8D/	.	8d/	.	8d/	.
8F#\J	.	8f#/J	.	8f#/J	.	8F#/J	.	8F#/J	.	8f#/J	.	8f#/J	.
=4	=4	=4	=4	=4	=4	=4	=4	=4	=4	=4	=4	=4	=4
4A\	.	4a/	.	4a/	.	4A/	.	4A/	.	4a/	.	4a/	.
8r	.	8r	.	8r	.	8r	.	8r	.	8r	.	8r	.
=5	=5	=5	=5	=5	=5	=5	=5	=5	=5	=5	=5	=5	=5
!	!	!	!	!LO:TX:a:t=P:problem=mixed beam	!	!	!	!	!	!	!	!	!
8r	.	8r	.	16ff#\LL	.	8D/	.	8A/	.	8dd\	.	8ff#\	.
.	.	.	.	16a/	.	.	.	.	.	.	.	.	.
8D\L	.	8f#/L	.	16a/	.	8r	.	8r	.	8r	.	8r	.
.	.	.	.	16a/	.	.	.	.	.	.	.	.	.
8D\J	.	8f#/J	.	16a/	.	8r	.	8r	.	8r	.	8r	.
.	.	.	.	16a/JJ	.	.	.	.	.	.	.	.	.
=6	=6	=6	=6	=6	=6	=6	=6	=6	=6	=6	=6	=6	=6
!	!	!	!	!LO:TX:a:t=P:problem=mixed beam	!	!	!	!LO:TX:a:t=P:problem= takt powtórzony repetycją	!	!	!	!	!
8r	.	8r	.	16gg\LL	.	8A/	.	8A/	.	8ee\	.	8gg\	.
.	.	.	.	16a\	.	.	.	.	.	.	.	.	.
8C#/L	.	8e/L	.	16a\	.	8r	.	8r	.	8r	.	8r	.
.	.	.	.	16a\	.	.	.	.	.	.	.	.	.
8C#/J	.	8e/J	.	16a\	.	8r	.	8r	.	8r	.	8r	.
.	.	.	.	16a\JJ	.	.	.	.	.	.	.	.	.
=7	=7	=7	=7	=7	=7	=7	=7	=7	=7	=7	=7	=7	=7
!	!	!	!	!LO:TX:a:t=P:problem=mixed beam	!	!	!	!	!	!	!	!	!
8r	.	8r	.	16ee\LL	.	8A/	.	8A/yy	.	8cc#\	.	8ee\	.
.	.	.	.	16a/	.	.	.	.	.	.	.	.	.
8E\L	.	8g/L	.	16a/	.	8r	.	8ryy	.	8r	.	8r	.
.	.	.	.	16a/	.	.	.	.	.	.	.	.	.
8E\J	.	8g/J	.	16a/	.	8r	.	8ryy	.	8r	.	8r	.
.	.	.	.	16a/JJ	.	.	.	.	.	.	.	.	.
=8	=8	=8	=8	=8	=8	=8	=8	=8	=8	=8	=8	=8	=8
!	!	!	!	!LO:TX:a:t=P:problem=mixed beam	!	!	!	!	!	!	!	!	!
8r	.	8r	.	16aa\LL	.	8D/	.	8d\	.	8ff#\	.	8aa\	.
.	.	.	.	16a/	.	.	.	.	.	.	.	.	.
8D\L	.	8f#/L	.	16a/	.	8r	.	8r	.	8r	.	8r	.
.	.	.	.	16a/	.	.	.	.	.	.	.	.	.
8D\J	.	8f#/J	.	16a/	.	8r	.	8r	.	8r	.	8r	.
.	.	.	.	16a/JJ	.	.	.	.	.	.	.	.	.
=9	=9	=9	=9	=9	=9	=9	=9	=9	=9	=9	=9	=9	=9
!	!	!	!	!	!	!	!	!LO:TX:a:t=P:problem= takt powtórzony repetycją	!	!	!	!	!
8D\L	.	8d/L	.	8d/L	.	8D/L	.	8D/L	.	8d/L	.	8d/L	.
8F#\	.	8f#/	.	8f#/	.	8F#/	.	8F#/	.	8f#/	.	8f#/	.
8A\J	.	8a/J	.	8a/J	.	8A/J	.	8A/J	.	8a/J	.	8a/J	.
!	!	!	!	!LO:LB:g=original	!	!	!	!	!	!	!	!LO:LB:g=original	!
=10	=10	=10	=10	=10	=10	=10	=10	=10	=10	=10	=10	=10	=10
8D\L	.	8d/L	.	8d/L	.	8D/L	.	8D/Lyy	.	8d/L	.	8d/L	.
8F#\	.	8f#/	.	8f#/	.	8F#/	.	8F#/yy	.	8f#/	.	8f#/	.
8A\J	.	8a/J	.	8a/J	.	8A/J	.	8A/Jyy	.	8a/J	.	8a/J	.
=11	=11	=11	=11	=11	=11	=11	=11	=11	=11	=11	=11	=11	=11
!	!	!LO:TX:a:t=P:problem=mixed beam	!	!LO:TX:a:t=P:problem=mixed beam	!	!LO:TX:a:t=P:problem=mixed beam	!	!LO:TX:a:t=P:problem=mixed beam	!	!LO:TX:a:t=P:problem=mixed beam	!	!LO:TX:a:t=P:problem=mixed beam	!
8d\L	.	8dd\L	.	8dd\L	.	8d\L	.	8d\L	.	8dd\L	.	8dd\L	.
8D\	.	8d/	.	8d/	.	8D/	.	8D/	.	8d/	.	8d/	.
8F#\J	.	8f#/J	.	8f#/J	.	8F#/J	.	8F#/J	.	8f#/J	.	8f#/J	.
!	!	!	!	!	!	!LO:LB:g=original	!	!	!	!	!	!	!
=12	=12	=12	=12	=12	=12	=12	=12	=12	=12	=12	=12	=12	=12
4A\	.	4a/	.	4a/	.	4A/	.	4A/	.	4a/	.	4a/	.
8r	.	8r	.	8r	.	8r	.	8r	.	8r	.	8r	.
=13	=13	=13	=13	=13	=13	=13	=13	=13	=13	=13	=13	=13	=13
!	!	!LO:TX:a:t=P:problem=mixed beam	!	!	!	!	!	!LO:TX:a:t=P:problem= takt powtórzony repetycją	!	!	!	!	!
8r	.	16ff#\LL	.	8r	.	8D/	.	8A/	.	8dd\	.	8ff#\	.
.	.	16a/	.	.	.	.	.	.	.	.	.	.	.
8D\L	.	16a/	.	8f#/L	.	8r	.	8r	.	8r	.	8r	.
.	.	16a/	.	.	.	.	.	.	.	.	.	.	.
8D\J	.	16a/	.	8f#/J	.	8r	.	8r	.	8r	.	8r	.
.	.	16a/JJ	.	.	.	.	.	.	.	.	.	.	.
!	!	!LO:LB:g=original	!	!	!	!	!	!	!	!	!	!	!
=14	=14	=14	=14	=14	=14	=14	=14	=14	=14	=14	=14	=14	=14
!	!	!LO:TX:a:t=P:problem=mixed beam	!	!	!	!	!	!	!	!	!	!	!
8r	.	16gg\LL	.	8r	.	8A/	.	8A/yy	.	8ee\	.	8gg\	.
.	.	16a/	.	.	.	.	.	.	.	.	.	.	.
8C#/L	.	16a/	.	8e/L	.	8r	.	8ryy	.	8r	.	8r	.
.	.	16a/	.	.	.	.	.	.	.	.	.	.	.
8C#/J	.	16a/	.	8e/J	.	8r	.	8ryy	.	8r	.	8r	.
.	.	16a/JJ	.	.	.	.	.	.	.	.	.	.	.
!	!	!	!	!	!	!	!	!	!	!LO:LB:g=original	!	!	!
=15	=15	=15	=15	=15	=15	=15	=15	=15	=15	=15	=15	=15	=15
!	!	!LO:TX:a:t=P:problem=mixed beam	!	!	!	!	!	!	!	!	!	!	!
8r	.	16ee\LL	.	8r	.	8A/	.	8A/	.	8cc#\	.	8ee\	.
.	.	16a/	.	.	.	.	.	.	.	.	.	.	.
8E\L	.	16a/	.	8g/L	.	8r	.	8r	.	8r	.	8r	.
.	.	16a/	.	.	.	.	.	.	.	.	.	.	.
8E\J	.	16a/	.	8g/J	.	8r	.	8r	.	8r	.	8r	.
.	.	16a/JJ	.	.	.	.	.	.	.	.	.	.	.
!LO:LB:g=original	!	!	!	!	!	!	!	!	!	!	!	!	!
=16	=16	=16	=16	=16	=16	=16	=16	=16	=16	=16	=16	=16	=16
!	!	!LO:TX:a:t=P:problem=mixed beam	!	!	!	!	!	!	!	!	!	!	!
8r	.	16aa\LL	.	8r	.	8D/	.	8d\	.	8ff#\	.	8aa\	.
.	.	16a/	.	.	.	.	.	.	.	.	.	.	.
8D\L	.	16a/	.	8f#/L	.	8r	.	8r	.	8r	.	8r	.
.	.	16a/	.	.	.	.	.	.	.	.	.	.	.
8D\J	.	16a/	.	8f#/J	.	8r	.	8r	.	8r	.	8r	.
.	.	16a/JJ	.	.	.	.	.	.	.	.	.	.	.
=17	=17	=17	=17	=17	=17	=17	=17	=17	=17	=17	=17	=17	=17
8D\L	.	8d/L	.	8d/L	.	8D/L	.	8D/L	.	8d/L	.	8d/L	.
8F#\	.	8f#/	.	8f#/	.	8F#/	.	8F#/	.	8f#/	.	8f#/	.
8A\J	.	8a/J	.	8a/J	.	8A/J	.	8A/J	.	8a/J	.	8a/J	.
=18	=18	=18	=18	=18	=18	=18	=18	=18	=18	=18	=18	=18	=18
!	!	!	!	!	!	!LO:SIC:s=:v:8cc	!	!LO:SIC:s=:v:8cc	!	!	!	!	!
8G#X\L	.	8g#X/L	.	8g#X/L	.	8e\	.	8e\	.	8g#X/L	.	8g#X/L	.
8E\	.	8e/	.	8e/	.	8r	.	8r	.	8e/	.	8e/	.
8B\J	.	8b/J	.	8b/J	.	8r	.	8r	.	8b/J	.	8b/J	.
=19	=19	=19	=19	=19	=19	=19	=19	=19	=19	=19	=19	=19	=19
!	!	!	!	!	!	!	!	!LO:TX:a:t=P:problem= takt powtórzony repetycją	!	!	!	!	!
8A\L	.	8a/L	.	8a/L	.	8e\	.	8e\	.	8a/L	.	8a/L	.
8E\	.	8e/	.	8e/	.	8r	.	8r	.	8e/	.	8e/	.
8c#\J	.	8cc#/J	.	8cc#/J	.	8r	.	8r	.	8cc#/J	.	8cc#/J	.
=20	=20	=20	=20	=20	=20	=20	=20	=20	=20	=20	=20	=20	=20
8B\L	.	8b/L	.	8b/L	.	8e\	.	8e\yy	.	8b/L	.	8b/L	.
8E\	.	8e/	.	8e/	.	8r	.	8ryy	.	8e/	.	8e/	.
8d\J	.	8dd/J	.	8dd/J	.	8r	.	8ryy	.	8dd/J	.	8dd/J	.
=21	=21	=21	=21	=21	=21	=21	=21	=21	=21	=21	=21	=21	=21
!	!	!	!	!	!	!	!	!LO:SIC:o:s:t:=:v: brak 1 taktu	!	!	!	!	!
8c#\	.	8cc#\	.	16cc#\LL	.	8A/	.	4.ryy	.	8cc#\	.	8cc#\	.
.	.	.	.	16ee\	.	.	.	.	.	.	.	.	.
8r	.	8r	.	16ee\	.	8r	.	.	.	8r	.	8r	.
.	.	.	.	16ee\	.	.	.	.	.	.	.	.	.
8c#\	.	8ee\	.	16ee\	.	8r	.	.	.	8r	.	8r	.
.	.	.	.	16ee\JJ	.	.	.	.	.	.	.	.	.
=22	=22	=22	=22	=22	=22	=22	=22	=22	=22	=22	=22	=22	=22
!	!	!	!	!	!	!LO:TX:a:t=13	!	!	!	!	!	!	!
!	!	!	!	!	!	!LO:N:vis=00	!	!LO:N:vis=00	!	!LO:N:vis=00	!	!LO:N:vis=00	!
8B\L	.	8dd\L	.	16ee\LL	.	1.r	.	1.r	.	1.r	.	1.r	.
.	.	.	.	16ee\	.	.	.	.	.	.	.	.	.
8G#X\	.	8b\	.	16ee\	.	.	.	.	.	.	.	.	.
.	.	.	.	16ee\	.	.	.	.	.	.	.	.	.
8E\J	.	8g#X\J	.	16ee\	.	.	.	.	.	.	.	.	.
.	.	.	.	16ee\JJ	.	.	.	.	.	.	.	.	.
=23	=23	=23	=23	=23	=23	=23	=23	=23	=23	=23	=23	=23	=23
8C#/	.	8a\	.	16ee\LL	.	.	.	.	.	.	.	.	.
.	.	.	.	16ee\	.	.	.	.	.	.	.	.	.
8r	.	8r	.	16ee\	.	.	.	.	.	.	.	.	.
.	.	.	.	16ee\	.	.	.	.	.	.	.	.	.
8e\	.	8cc#\	.	16ee\	.	.	.	.	.	.	.	.	.
.	.	.	.	16ee\JJ	.	.	.	.	.	.	.	.	.
!	!	!	!	!LO:LB:g=original	!	!	!	!	!	!	!	!	!
=24	=24	=24	=24	=24	=24	=24	=24	=24	=24	=24	=24	=24	=24
8d\L	.	8b/L	.	16ee\LL	.	.	.	.	.	.	.	.	.
.	.	.	.	16ee\	.	.	.	.	.	.	.	.	.
8B\	.	8g#X/	.	16ee\	.	.	.	.	.	.	.	.	.
.	.	.	.	16ee\	.	.	.	.	.	.	.	.	.
8G#X\J	.	8e/J	.	16ee\	.	.	.	.	.	.	.	.	.
.	.	.	.	16ee\JJ	.	.	.	.	.	.	.	.	.
=25	=25	=25	=25	=25	=25	=25	=25	=25	=25	=25	=25	=25	=25
8A\	.	8cc#\	.	16ee\LL	.	.	.	.	.	.	.	.	.
.	.	.	.	16ee\	.	.	.	.	.	.	.	.	.
8r	.	8r	.	16ee\	.	.	.	.	.	.	.	.	.
.	.	.	.	16ee\	.	.	.	.	.	.	.	.	.
8c#\	.	8ee\	.	16ee\	.	.	.	.	.	.	.	.	.
.	.	.	.	16ee\JJ	.	.	.	.	.	.	.	.	.
!	!	!LO:LB:g=original	!	!	!	!	!	!	!	!	!	!	!
=26	=26	=26	=26	=26	=26	=26	=26	=26	=26	=26	=26	=26	=26
!	!	!	!	!LO:TX:a:t=P:problem= takt powtórzony repetycją	!	!	!	!	!	!	!	!	!
!	!	!	!	!	!	!LO:N:vis=00	!	!LO:N:vis=00	!	!LO:N:vis=00	!	!LO:N:vis=00	!
8B\L	.	8dd\L	.	16ee\LL	.	1.r	.	1.r	.	1.r	.	1.r	.
.	.	.	.	16ee\	.	.	.	.	.	.	.	.	.
8G#X\	.	8b\	.	16ee\	.	.	.	.	.	.	.	.	.
.	.	.	.	16ee\	.	.	.	.	.	.	.	.	.
8E\J	.	8g#X\J	.	16ee\	.	.	.	.	.	.	.	.	.
.	.	.	.	16ee\JJ	.	.	.	.	.	.	.	.	.
=27	=27	=27	=27	=27	=27	=27	=27	=27	=27	=27	=27	=27	=27
!LO:TX:a:t=P:problem=mixed beam	!	!	!	!	!	!	!	!	!	!	!	!	!
8A\L	.	8a/L	.	16ee\LLyy	.	.	.	.	.	.	.	.	.
.	.	.	.	16ee\yy	.	.	.	.	.	.	.	.	.
8AA/	.	8A/	.	16ee\yy	.	.	.	.	.	.	.	.	.
.	.	.	.	16ee\yy	.	.	.	.	.	.	.	.	.
8C#/J	.	8c#/J	.	16ee\yy	.	.	.	.	.	.	.	.	.
.	.	.	.	16ee\JJyy	.	.	.	.	.	.	.	.	.
=28	=28	=28	=28	=28	=28	=28	=28	=28	=28	=28	=28	=28	=28
!	!	!LO:TX:a:t=P:problem=mixed beam	!	!	!	!	!	!	!	!	!	!	!
4E\	.	16e/LL	.	4ee\	.	.	.	.	.	.	.	.	.
.	.	16ee\	.	.	.	.	.	.	.	.	.	.	.
.	.	16ee\	.	.	.	.	.	.	.	.	.	.	.
.	.	16ee\	.	.	.	.	.	.	.	.	.	.	.
8r	.	16ee\	.	8r	.	.	.	.	.	.	.	.	.
.	.	16ee\JJ	.	.	.	.	.	.	.	.	.	.	.
!LO:LB:g=original	!	!	!	!	!	!	!	!	!	!	!	!	!
=29	=29	=29	=29	=29	=29	=29	=29	=29	=29	=29	=29	=29	=29
8A\	.	16ee\LL	.	8cc#\	.	.	.	.	.	.	.	.	.
.	.	16ee\	.	.	.	.	.	.	.	.	.	.	.
8r	.	16ee\	.	8r	.	.	.	.	.	.	.	.	.
.	.	16ee\	.	.	.	.	.	.	.	.	.	.	.
(16A\LL	.	16ee\	.	8ee\	.	.	.	.	.	.	.	.	.
16c#\JJ)	.	16ee\JJ	.	.	.	.	.	.	.	.	.	.	.
=30	=30	=30	=30	=30	=30	=30	=30	=30	=30	=30	=30	=30	=30
*	*	*tremolo	*	*	*	*	*	*	*	*	*	*	*
*	*	*tremolo	*	*	*	*	*	*	*	*	*	*	*
!	!	!	!	!	!	!LO:N:vis=00	!	!LO:N:vis=00	!	!LO:N:vis=00	!	!LO:N:vis=00	!
8B\L	.	16ee\LL	.	8dd\L	.	1.r	.	1.r	.	1.r	.	1.r	.
.	.	16ee\	.	.	.	.	.	.	.	.	.	.	.
8G#X\	.	16ee\	.	8b\	.	.	.	.	.	.	.	.	.
.	.	16ee\	.	.	.	.	.	.	.	.	.	.	.
8E\J	.	16ee\	.	8g#X\J	.	.	.	.	.	.	.	.	.
.	.	16ee\JJ	.	.	.	.	.	.	.	.	.	.	.
=31	=31	=31	=31	=31	=31	=31	=31	=31	=31	=31	=31	=31	=31
8c#\	.	16ee\LL	.	8a/	.	.	.	.	.	.	.	.	.
.	.	16ee\	.	.	.	.	.	.	.	.	.	.	.
8r	.	16ee\	.	8r	.	.	.	.	.	.	.	.	.
.	.	16ee\	.	.	.	.	.	.	.	.	.	.	.
(16A\LL	.	16ee\	.	8cc#\	.	.	.	.	.	.	.	.	.
16e\JJ)	.	16ee\JJ	.	.	.	.	.	.	.	.	.	.	.
=32	=32	=32	=32	=32	=32	=32	=32	=32	=32	=32	=32	=32	=32
8d\L	.	16ee\LL	.	8b/L	.	.	.	.	.	.	.	.	.
.	.	16ee\	.	.	.	.	.	.	.	.	.	.	.
8B\	.	16ee\	.	8g#X/	.	.	.	.	.	.	.	.	.
.	.	16ee\	.	.	.	.	.	.	.	.	.	.	.
8G#X\J	.	16ee\	.	8e/J	.	.	.	.	.	.	.	.	.
.	.	16ee\JJ	.	.	.	.	.	.	.	.	.	.	.
=33	=33	=33	=33	=33	=33	=33	=33	=33	=33	=33	=33	=33	=33
8C#/	.	16ee\LL	.	8a/	.	.	.	.	.	.	.	.	.
.	.	16ee\	.	.	.	.	.	.	.	.	.	.	.
8r	.	16ee\	.	8r	.	.	.	.	.	.	.	.	.
.	.	16ee\	.	.	.	.	.	.	.	.	.	.	.
(16A\LL	.	16ee\	.	8ee\	.	.	.	.	.	.	.	.	.
16c#\JJ)	.	16ee\JJ	.	.	.	.	.	.	.	.	.	.	.
*	*	*Xtremolo	*	*	*	*	*	*	*	*	*	*	*
=34	=34	=34	=34	=34	=34	=34	=34	=34	=34	=34	=34	=34	=34
!	!	!LO:SIC:o:s:t:=:v: brak taktu, notatka ołówkiem o wstawionym jednym takcie	!	!	!	!	!	!	!	!	!	!	!
8B\L	.	4.ryy	.	8dd\L	.	4.r	.	4.r	.	4.r	.	4.r	.
8G#X\	.	.	.	8b\	.	.	.	.	.	.	.	.	.
8E\J	.	.	.	8g#X\J	.	.	.	.	.	.	.	.	.
!	!	!	!	!	!	!	!	!	!	!	!	!LO:LB:g=original	!
=35	=35	=35	=35	=35	=35	=35	=35	=35	=35	=35	=35	=35	=35
!LO:TX:a:t=P:problem=mixed beam	!	!LO:TX:a:t=P:problem=mixed beam	!	!	!	!	!	!	!	!LO:TX:a:t=P:problem=mixed beam	!	!LO:TX:a:t=P:problem=mixed beam	!
8A\L	.	8ee\L	.	8a/L	.	4A/	.	4A/	.	8aa\L	.	8aa\L	.
8AA/	.	8A/	.	8A/	.	.	.	.	.	8a/	.	8a/	.
8C#/J	.	8c#/J	.	8c#/J	.	8r	.	8r	.	8cc#/J	.	8cc#/J	.
=36	=36	=36	=36	=36	=36	=36	=36	=36	=36	=36	=36	=36	=36
!LO:TX:a:t=P:problem=mixed beam	!	!	!	!	!	!	!	!	!	!LO:TX:a:t=P:problem=mixed beam	!	!LO:TX:a:t=P:problem=mixed beam	!
8A\L	.	8a/L	.	8a/L	.	4A/	.	4A/	.	8aa\L	.	8aa\L	.
8AA/	.	8A/	.	8A/	.	.	.	.	.	8a/	.	8a/	.
8D/J	.	8d/J	.	8d/J	.	8r	.	8r	.	8dd/J	.	8dd/J	.
=37	=37	=37	=37	=37	=37	=37	=37	=37	=37	=37	=37	=37	=37
!LO:TX:a:t=P:problem=mixed beam	!	!	!	!	!	!	!	!	!	!LO:TX:a:t=P:problem=mixed beam	!	!LO:TX:a:t=P:problem=mixed beam	!
8A\L	.	8a/L	.	8a/L	.	4A/	.	4A/	.	8aa\L	.	8aa\L	.
8AA/	.	8A/	.	8A/	.	.	.	.	.	8a/	.	8a/	.
8C#/J	.	8c#/J	.	8c#/J	.	8r	.	8r	.	8cc#/J	.	8cc#/J	.
!	!	!	!	!	!	!	!	!LO:LB:g=original	!	!	!	!	!
=38	=38	=38	=38	=38	=38	=38	=38	=38	=38	=38	=38	=38	=38
4E\	.	4e/	.	4e/	.	4e\	.	4e\	.	4ee\	.	4ee\	.
8r	.	8r	.	8r	.	8r	.	8r	.	8r	.	8r	.
!	!	!	!	!LO:LB:g=original	!	!LO:PB:g=original	!	!	!	!	!	!	!
=39	=39	=39	=39	=39	=39	=39	=39	=39	=39	=39	=39	=39	=39
!	!	!	!LO:DY:a	!LO:TX:a:i:t=Solo	!	!LO:TX:a:t=17.	!	!	!	!	!	!	!
!	!	!	!	!	!	!LO:N:vis=00	!	!LO:N:vis=00	!	!LO:N:vis=00	!	!LO:N:vis=00	!
4.G#X\	.	4.b/	p	(4b\	.	1.r	.	1.r	.	1.r	.	1.r	.
.	.	.	.	8ee\)	.	.	.	.	.	.	.	.	.
=40	=40	=40	=40	=40	=40	=40	=40	=40	=40	=40	=40	=40	=40
4.F#\	.	4.a/	.	(4ee\	.	.	.	.	.	.	.	.	.
.	.	.	.	8dd#X\)	.	.	.	.	.	.	.	.	.
!	!	!LO:LB:g=original	!	!	!	!	!	!	!	!	!	!	!
=41	=41	=41	=41	=41	=41	=41	=41	=41	=41	=41	=41	=41	=41
4.D#X\	.	4.b/	.	(4ff#\	.	.	.	.	.	.	.	.	.
.	.	.	.	8aa\)	.	.	.	.	.	.	.	.	.
!LO:LB:g=original	!	!	!	!	!	!	!	!	!	!	!	!	!
=42	=42	=42	=42	=42	=42	=42	=42	=42	=42	=42	=42	=42	=42
4.E\	.	4.b/	.	4aa\	.	.	.	.	.	.	.	.	.
.	.	.	.	8gg#X\	.	.	.	.	.	.	.	.	.
=43	=43	=43	=43	=43	=43	=43	=43	=43	=43	=43	=43	=43	=43
!	!	!	!	!	!	!LO:N:vis=00	!	!LO:N:vis=00	!	!LO:N:vis=00	!	!LO:N:vis=00	!
8E\L	.	(4gg#X\	.	(4bb\	.	1.r	.	1.r	.	1.r	.	1.r	.
8E\	.	.	.	.	.	.	.	.	.	.	.	.	.
8E\J	.	8ee\)	.	8gg#X\)	.	.	.	.	.	.	.	.	.
=44	=44	=44	=44	=44	=44	=44	=44	=44	=44	=44	=44	=44	=44
8AA/L	.	8aa\L	.	8cc#\L	.	.	.	.	.	.	.	.	.
8AA/	.	8ff#\	.	8aa\	.	.	.	.	.	.	.	.	.
8AA/J	.	8dd#X\J	.	8ff#\J	.	.	.	.	.	.	.	.	.
=45	=45	=45	=45	=45	=45	=45	=45	=45	=45	=45	=45	=45	=45
8BB/L	.	8a/L	.	8dd#X\L	.	.	.	.	.	.	.	.	.
8BB/	.	8a/	.	8bb\	.	.	.	.	.	.	.	.	.
8BB/J	.	8a/J	.	8dd#\J	.	.	.	.	.	.	.	.	.
=46	=46	=46	=46	=46	=46	=46	=46	=46	=46	=46	=46	=46	=46
8E\L	.	4g#X/	.	4ee\	.	.	.	.	.	.	.	.	.
8G#X\	.	.	.	.	.	.	.	.	.	.	.	.	.
8B\J	.	8r	.	8r	.	.	.	.	.	.	.	.	.
=47	=47	=47	=47	=47	=47	=47	=47	=47	=47	=47	=47	=47	=47
!	!	!LO:TX:a:i:t=Solo	!	!	!LO:DY:a	!	!	!	!	!	!	!	!
!	!	!	!	!	!	!LO:N:vis=00	!	!LO:N:vis=00	!	!LO:N:vis=00	!	!LO:N:vis=00	!
4.G#X\	.	(4b\	.	4.b/	p	1.r	.	1.r	.	1.r	.	1.r	.
.	.	8ee\)	.	.	.	.	.	.	.	.	.	.	.
=48	=48	=48	=48	=48	=48	=48	=48	=48	=48	=48	=48	=48	=48
4.F#\	.	(4ee\	.	4.a/	.	.	.	.	.	.	.	.	.
.	.	8dd#X\)	.	.	.	.	.	.	.	.	.	.	.
=49	=49	=49	=49	=49	=49	=49	=49	=49	=49	=49	=49	=49	=49
4.D#X\	.	(4ff#\	.	4.B/	.	.	.	.	.	.	.	.	.
.	.	8a/)	.	.	.	.	.	.	.	.	.	.	.
=50	=50	=50	=50	=50	=50	=50	=50	=50	=50	=50	=50	=50	=50
4.E\	.	(4a/	.	4.B/	.	.	.	.	.	.	.	.	.
.	.	8g#X/)	.	.	.	.	.	.	.	.	.	.	.
=51	=51	=51	=51	=51	=51	=51	=51	=51	=51	=51	=51	=51	=51
!	!	!	!	!	!	!LO:N:vis=00	!	!LO:N:vis=00	!	!LO:N:vis=00	!	!LO:N:vis=00	!
8E\L	.	4bb\	.	(4gg#X\	.	1.r	.	1.r	.	1.r	.	1.r	.
8E\	.	.	.	.	.	.	.	.	.	.	.	.	.
8E\J	.	8gg#X\	.	8ee\)	.	.	.	.	.	.	.	.	.
=52	=52	=52	=52	=52	=52	=52	=52	=52	=52	=52	=52	=52	=52
8AA/L	.	(8cc#\L	.	(8aa\L	.	.	.	.	.	.	.	.	.
8AA/	.	8aa\	.	8ff#\	.	.	.	.	.	.	.	.	.
8AA/J	.	8ff#\J)	.	8dd#X\J)	.	.	.	.	.	.	.	.	.
=53	=53	=53	=53	=53	=53	=53	=53	=53	=53	=53	=53	=53	=53
8BB/L	.	8b\L	.	8a/L	.	.	.	.	.	.	.	.	.
8BB/	.	8ff#\	.	8a/	.	.	.	.	.	.	.	.	.
8BB/J	.	8dd#X\J	.	8a/J	.	.	.	.	.	.	.	.	.
=54	=54	=54	=54	=54	=54	=54	=54	=54	=54	=54	=54	=54	=54
!	!LO:DY:a	!	!	!	!	!	!	!	!	!	!	!	!
16E\LL	f	4ee\	.	8g#X/	.	.	.	.	.	.	.	.	.
16F#\	.	.	.	.	.	.	.	.	.	.	.	.	.
16Gn\	.	.	.	8r	.	.	.	.	.	.	.	.	.
16F#\	.	.	.	.	.	.	.	.	.	.	.	.	.
16E\	.	8r	.	8r	.	.	.	.	.	.	.	.	.
16D\JJ	.	.	.	.	.	.	.	.	.	.	.	.	.
!	!	!LO:LB:g=original	!	!LO:LB:g=original	!	!	!	!	!	!	!	!	!
=55	=55	=55	=55	=55	=55	=55	=55	=55	=55	=55	=55	=55	=55
!	!	!	!	!	!LO:DY:a	!	!	!	!	!	!	!	!
16C#X\LL	.	8ee\	.	8gn/	f	4.r	.	4.r	.	4.r	.	4.r	.
16D\	.	.	.	.	.	.	.	.	.	.	.	.	.
16E\	.	8r	.	8r	.	.	.	.	.	.	.	.	.
!LO:SIC:s=:v:16D	!	!	!	!	!	!	!	!	!	!	!	!	!
16D#X\	.	.	.	.	.	.	.	.	.	.	.	.	.
16C#\	.	8r	.	8r	.	.	.	.	.	.	.	.	.
16BB\JJ	.	.	.	.	.	.	.	.	.	.	.	.	.
!LO:LB:g=original	!	!	!	!	!	!	!	!	!	!	!	!	!
=56	=56	=56	=56	=56	=56	=56	=56	=56	=56	=56	=56	=56	=56
4.AA#X/	.	8r	.	8r	.	8r	.	8r	.	8r	.	8r	.
.	.	8ee\L	.	8gg\L	.	8e\L	.	8e\L	.	8ee\L	.	8ggn\L	.
.	.	8ee\J	.	8gg\J	.	8e\J	.	8e\J	.	8ee\J	.	8gg\J	.
=57	=57	=57	=57	=57	=57	=57	=57	=57	=57	=57	=57	=57	=57
4.BB/	.	4.dd\	.	(8ff#\L	.	4.d\	.	4.f#\	.	4.dd\	.	(8ff#\L	.
.	.	.	.	8dd\	.	.	.	.	.	.	.	8dd\	.
.	.	.	.	8b\J)	.	.	.	.	.	.	.	8b\J)	.
=58	=58	=58	=58	=58	=58	=58	=58	=58	=58	=58	=58	=58	=58
!	!	!	!	!LO:TX:a:t=P:problem=mixed beam	!	!	!	!LO:TX:a:t=P:problem= takt powtórzony repetycją	!	!	!	!	!
8F#\L	.	4.cc#\	.	16f#/LL	.	4.F#/	.	4.f#\	.	4.cc#\	.	4.aa#X\	.
.	.	.	.	16aa#X\	.	.	.	.	.	.	.	.	.
8F#\	.	.	.	16aa#\	.	.	.	.	.	.	.	.	.
.	.	.	.	16aa#\	.	.	.	.	.	.	.	.	.
8E\J	.	.	.	16aa#\	.	.	.	.	.	.	.	.	.
.	.	.	.	16aa#\JJ	.	.	.	.	.	.	.	.	.
!	!	!	!	!	!	!	!	!	!	!LO:LB:g=original	!	!	!
=59	=59	=59	=59	=59	=59	=59	=59	=59	=59	=59	=59	=59	=59
!	!	!	!	!LO:TX:a:t=P:problem=mixed beam	!	!	!	!	!	!	!	!	!
8D/L	.	8b\L	.	16bb\LL	.	4.F#/	.	4.f#\yy	.	4.dd\	.	4.bb\	.
.	.	.	.	16b/	.	.	.	.	.	.	.	.	.
8C#/	.	8cc#\	.	16b/	.	.	.	.	.	.	.	.	.
.	.	.	.	16b/	.	.	.	.	.	.	.	.	.
8BB/J	.	8dd\J	.	16b/	.	.	.	.	.	.	.	.	.
.	.	.	.	16b/JJ	.	.	.	.	.	.	.	.	.
=60	=60	=60	=60	=60	=60	=60	=60	=60	=60	=60	=60	=60	=60
!LO:TX:a:t=P:problem=mixed beam	!	!	!	!LO:TX:a:t=P:problem=mixed beam	!	!	!	!	!	!	!	!	!
8AA#X/L	.	4.cc#\	.	16f#/LL	.	4.F#/	.	4.f#\	.	4.cc#\	.	4.aa#X\	.
.	.	.	.	16aa#X\	.	.	.	.	.	.	.	.	.
8F#\	.	.	.	16aa#\	.	.	.	.	.	.	.	.	.
.	.	.	.	16aa#\	.	.	.	.	.	.	.	.	.
8E\J	.	.	.	16aa#\	.	.	.	.	.	.	.	.	.
.	.	.	.	16aa#\JJ	.	.	.	.	.	.	.	.	.
=61	=61	=61	=61	=61	=61	=61	=61	=61	=61	=61	=61	=61	=61
!	!	!LO:TX:a:t=P:problem=mixed beam	!	!	!	!	!	!	!	!	!	!	!
8D/L	.	8b\L	.	16bb\LL	.	8d\	.	8f#\	.	8r	.	8r	.
.	.	.	.	16bb\	.	.	.	.	.	.	.	.	.
8BB/	.	8d/	.	16ff#\	.	8r	.	8r	.	(8ff#\L	.	(8bb\L	.
.	.	.	.	16ff#\	.	.	.	.	.	.	.	.	.
8BB/J	.	8d/J	.	16dd\	.	8r	.	8r	.	8dd\J)	.	8ff#\J)	.
.	.	.	.	16dd\JJ	.	.	.	.	.	.	.	.	.
=62	=62	=62	=62	=62	=62	=62	=62	=62	=62	=62	=62	=62	=62
8BB/L	.	8d/L	.	16b\LL	.	8d\	.	8f#\	.	8r	.	8r	.
.	.	.	.	16b\	.	.	.	.	.	.	.	.	.
8BB/	.	8d/	.	16dd\	.	8r	.	8r	.	(8ff#\L	.	(8bb\L	.
.	.	.	.	16dd\	.	.	.	.	.	.	.	.	.
8BB/J	.	8d/J	.	16ff#\	.	8r	.	8r	.	8dd\J)	.	8ff#\J)	.
.	.	.	.	16ff#\JJ	.	.	.	.	.	.	.	.	.
=63	=63	=63	=63	=63	=63	=63	=63	=63	=63	=63	=63	=63	=63
!	!LO:DY:a	!	!LO:DY:a	!	!LO:DY:a	!	!	!LO:TX:a:t=P:problem= takt powtórzony repetycją	!	!	!	!	!
8BB/L	p	8d/L	p	16bb\LL	p	8d\	p	8f#\	.	8r	.	8r	.
.	.	.	.	16bb\	.	.	.	.	.	.	.	.	.
!	!	!	!	!	!	!	!	!	!	!	!LO:DY:a	!	!LO:DY:a
8BB/	.	8d/	.	16ff#\	.	8r	.	8r	.	(8ff#\L	p	(8bb\L	p
.	.	.	.	16ff#\	.	.	.	.	.	.	.	.	.
8BB/J	.	8d/J	.	16dd\	.	8r	.	8r	.	8dd\J)	.	8ff#\J)	.
.	.	.	.	16dd\JJ	.	.	.	.	.	.	.	.	.
=64	=64	=64	=64	=64	=64	=64	=64	=64	=64	=64	=64	=64	=64
8BB/L	.	8d/L	.	16b\LL	.	8d\	.	8f#\yy	.	8r	.	8r	.
.	.	.	.	16b\	.	.	.	.	.	.	.	.	.
8BB/	.	8d/	.	16dd\	.	8r	.	8ryy	.	(8ff#\L	.	(8bb\L	.
.	.	.	.	16dd\	.	.	.	.	.	.	.	.	.
8BB/J	.	8d/J	.	16ff#\	.	8r	.	8ryy	.	8dd\J)	.	8ff#\J)	.
.	.	.	.	16ff#\JJ	.	.	.	.	.	.	.	.	.
!	!	!	!	!LO:PB:g=original	!	!	!	!	!	!	!	!	!
=65	=65	=65	=65	=65	=65	=65	=65	=65	=65	=65	=65	=65	=65
!	!LO:DY:a	!	!LO:DY:a:t=f&colon;	!	!LO:DY:a	!	!LO:DY:b:t=fo&colon;	!	!	!	!	!	!
8BB/L	f	8e/L	f	16bb\LL	f	8e\	f	8g\	.	8r	.	8r	.
.	.	.	.	16bb\	.	.	.	.	.	.	.	.	.
!	!	!	!	!	!	!	!	!	!	!	!LO:DY:a:t=f&colon;	!	!LO:DY:a
8BB/	.	8e/	.	16gg\	.	8r	.	8r	.	(8gg\L	f	(8bb\L	f
.	.	.	.	16gg\	.	.	.	.	.	.	.	.	.
8BB/J	.	8e/J	.	16ee\	.	8r	.	8r	.	8ee\J)	.	8gg\J)	.
.	.	.	.	16ee\JJ	.	.	.	.	.	.	.	.	.
=66	=66	=66	=66	=66	=66	=66	=66	=66	=66	=66	=66	=66	=66
!	!	!	!	!	!	!	!	!LO:TX:a:t=P:problem= takt powtórzony repetycją	!	!	!	!	!
8BB/L	.	8e/L	.	16b\LL	.	8e\	.	8g\	.	8r	.	8r	.
.	.	.	.	16b\	.	.	.	.	.	.	.	.	.
8BB/	.	8e/	.	16ee\	.	8r	.	8r	.	(8gg\L	.	(8bb\L	.
.	.	.	.	16ee\	.	.	.	.	.	.	.	.	.
8BB/J	.	8e/J	.	16gg\	.	8r	.	8r	.	8ee\J)	.	8gg\J)	.
.	.	.	.	16gg\JJ	.	.	.	.	.	.	.	.	.
=67	=67	=67	=67	=67	=67	=67	=67	=67	=67	=67	=67	=67	=67
!	!LO:DY:a	!	!LO:DY:a	!	!LO:DY:a	!	!LO:DY:b:t=pia&colon;	!	!	!	!	!	!
8BB/L	p	8e/L	p	16bb\LL	p	8e\	p	8g\yy	.	8r	.	8r	.
.	.	.	.	16bb\	.	.	.	.	.	.	.	.	.
!	!	!	!	!	!	!	!	!	!	!	!LO:DY:a	!	!
8BB/	.	8e/	.	16gg\	.	8r	.	8ryy	.	8gg\L	p	(8bb\L	.
.	.	.	.	16gg\	.	.	.	.	.	.	.	.	.
8BB/J	.	8e/J	.	16ee\	.	8r	.	8ryy	.	8ee\J	.	8gg\J)	.
.	.	.	.	16ee\JJ	.	.	.	.	.	.	.	.	.
=68	=68	=68	=68	=68	=68	=68	=68	=68	=68	=68	=68	=68	=68
8BB/L	.	8e/L	.	16b\LL	.	8e\	.	8g\	.	8r	.	8r	.
.	.	.	.	16b\	.	.	.	.	.	.	.	.	.
8BB/	.	8e/	.	16ee\	.	8r	.	8r	.	8gg\L	.	(8bb\L	.
.	.	.	.	16ee\	.	.	.	.	.	.	.	.	.
8BB/J	.	8e/J	.	16gg\	.	8r	.	8r	.	8ee\J	.	8gg\J)	.
.	.	.	.	16gg\JJ	.	.	.	.	.	.	.	.	.
!	!	!LO:LB:g=original	!	!	!	!	!	!	!	!	!	!	!
=69	=69	=69	=69	=69	=69	=69	=69	=69	=69	=69	=69	=69	=69
!	!LO:DY:a	!	!LO:DY:a:t=f&colon;	!	!LO:DY:a	!	!	!	!	!	!	!	!
8BB/L	f	8d/L	f	16bb\LL	f	8d\	f	8f#\	.	8r	.	8r	.
.	.	.	.	16bb\	.	.	.	.	.	.	.	.	.
!	!	!	!	!	!	!	!	!	!	!	!LO:DY:a	!	!
8BB/	.	8d/	.	16ff#\	.	8r	.	8r	.	(8ff#\L	f	(8bb\L	.
.	.	.	.	16ff#\	.	.	.	.	.	.	.	.	.
8BB/J	.	8d/J	.	16dd\	.	8r	.	8r	.	8dd\J)	.	8ff#\J)	.
.	.	.	.	16dd\JJ	.	.	.	.	.	.	.	.	.
!LO:LB:g=original	!	!	!	!	!	!LO:LB:g=original	!	!	!	!	!	!	!
=70	=70	=70	=70	=70	=70	=70	=70	=70	=70	=70	=70	=70	=70
8BB/L	.	8e/L	.	16bb\LL	.	8e\	.	8g\	.	8r	.	8r	.
.	.	.	.	16bb\	.	.	.	.	.	.	.	.	.
8BB/	.	8e/	.	16gg\	.	8r	.	8r	.	(8gg\L	.	(8bb\L	.
.	.	.	.	16gg\	.	.	.	.	.	.	.	.	.
8BB/J	.	8e/J	.	16ee\	.	8r	.	8r	.	8ee\J)	.	8gg\J)	.
.	.	.	.	16ee\JJ	.	.	.	.	.	.	.	.	.
=71	=71	=71	=71	=71	=71	=71	=71	=71	=71	=71	=71	=71	=71
8BB/L	.	8d/L	.	16bb\LL	.	8d\	.	8r	.	8r	.	8r	.
.	.	.	.	16bb\	.	.	.	.	.	.	.	.	.
8BB/	.	8d/	.	16ff#\	.	8r	.	8f#\	.	(8ff#\L	.	(8bb\L	.
.	.	.	.	16ff#\	.	.	.	.	.	.	.	.	.
8BB/J	.	8d/J	.	16dd\	.	8r	.	8r	.	8dd\J)	.	8ff#\J)	.
.	.	.	.	16dd\JJ	.	.	.	.	.	.	.	.	.
=72	=72	=72	=72	=72	=72	=72	=72	=72	=72	=72	=72	=72	=72
8BB/	.	8d/	.	16ff#\LL	.	8d\	.	8f#\	.	8r	.	8r	.
.	.	.	.	16ff#\	.	.	.	.	.	.	.	.	.
8r	.	8r	.	16dd\	.	8r	.	8r	.	(8dd\L	.	(8ff#\L	.
.	.	.	.	16dd\	.	.	.	.	.	.	.	.	.
8r	.	8r	.	16b\	.	8r	.	8r	.	8b\J)	.	8dd\J)	.
.	.	.	.	16b\JJ	.	.	.	.	.	.	.	.	.
=73	=73	=73	=73	=73	=73	=73	=73	=73	=73	=73	=73	=73	=73
!LO:TX:a:t=P:problem= takt powtórzony repetycją	!	!	!	!	!	!	!	!LO:TX:a:t=P:problem= takt powtórzony repetycją	!	!	!	!	!
8BB/	.	8d/	.	16dd\LL	.	8d\	.	8f#\	.	8r	.	8r	.
.	.	.	.	16dd\	.	.	.	.	.	.	.	.	.
8r	.	8r	.	16b\	.	8r	.	8r	.	(8dd\L	.	(8ff#\L	.
.	.	.	.	16b\	.	.	.	.	.	.	.	.	.
8r	.	8r	.	16f#\	.	8r	.	8r	.	8b\J)	.	8dd\J)	.
.	.	.	.	16f#\JJ	.	.	.	.	.	.	.	.	.
=74	=74	=74	=74	=74	=74	=74	=74	=74	=74	=74	=74	=74	=74
!	!	!	!	!	!	!	!	!	!	!LO:TX:a:t=P:problem= takt powtórzony repetycją	!	!	!
8BB/yy	.	8d/	.	16b/LL	.	8d\	.	8f#\yy	.	8r	.	8r	.
.	.	.	.	16b/	.	.	.	.	.	.	.	.	.
8ryy	.	8r	.	16f#/	.	8r	.	8ryy	.	(8dd\L	.	(8ff#\L	.
.	.	.	.	16f#/	.	.	.	.	.	.	.	.	.
8ryy	.	8r	.	16d/	.	8r	.	8ryy	.	8b\J)	.	8dd\J)	.
.	.	.	.	16d/JJ	.	.	.	.	.	.	.	.	.
!	!	!	!	!LO:LB:g=original	!	!	!	!	!	!	!	!	!
=75	=75	=75	=75	=75	=75	=75	=75	=75	=75	=75	=75	=75	=75
8F#\L	.	16f#/LL	.	16f#/LL	.	8d\	.	8f#\	.	8ryy	.	8r	.
.	.	16f#/	.	16f#/	.	.	.	.	.	.	.	.	.
8D\	.	16d/	.	16d/	.	8r	.	8r	.	(8dd\Lyy	.	(8ff#\L	.
.	.	16d/	.	16d/	.	.	.	.	.	.	.	.	.
8BB\J	.	16B/	.	16B/	.	8r	.	8r	.	8b\J)yy	.	8dd\J)	.
.	.	16B/JJ	.	16B/JJ	.	.	.	.	.	.	.	.	.
!	!	!	!	!	!	!	!	!	!	!LO:LB:g=original	!	!	!
=76	=76	=76	=76	=76	=76	=76	=76	=76	=76	=76	=76	=76	=76
8F#\L	.	8f#/L	.	8f#/L	.	8F#/	.	8f#\	.	8a/	.	8cc#\	.
8F#\	.	8f#/	.	8f#/	.	8r	.	8r	.	8r	.	8r	.
8F#\J	.	8f#/J	.	8f#/J	.	8F#/	.	8f#\	.	8f#/	.	8ff#\	.
!	!	!	!	!	!	!	!	!LO:LB:g=original	!	!	!	!	!
=77	=77	=77	=77	=77	=77	=77	=77	=77	=77	=77	=77	=77	=77
8F#\L	.	8f#/	.	8f#/	.	8F#/	.	8f#\	.	8f#/	.	8ff#\	.
8G#X\	.	8r	.	8r	.	8r	.	8r	.	8r	.	8r	.
8A#X\J	.	8r	.	8r	.	8r	.	8r	.	8r	.	8r	.
=78	=78	=78	=78	=78	=78	=78	=78	=78	=78	=78	=78	=78	=78
!	!	!	!LO:DY:a	!	!LO:DY:a	!LO:TX:a:t=4.	!	!LO:N:vis=00	!	!LO:N:vis=00	!	!LO:N:vis=00	!
!	!	!	!	!	!	!LO:N:vis=00	!	!	!	!	!	!	!
8B\L	.	(4.dd\	p	(4.ff#\	p	1.r	.	1.r	.	1.r	.	1.r	.
8B\	.	.	.	.	.	.	.	.	.	.	.	.	.
8B\J	.	.	.	.	.	.	.	.	.	.	.	.	.
=79	=79	=79	=79	=79	=79	=79	=79	=79	=79	=79	=79	=79	=79
!LO:TX:a:t=P:problem= takt powtórzony repetycją	!	!	!	!	!	!	!	!	!	!	!	!	!
8B\L	.	8ee\)	.	8gg\)	.	.	.	.	.	.	.	.	.
8B\	.	8r	.	8r	.	.	.	.	.	.	.	.	.
8B\J	.	8r	.	8r	.	.	.	.	.	.	.	.	.
=80	=80	=80	=80	=80	=80	=80	=80	=80	=80	=80	=80	=80	=80
8B\Lyy	.	(4.cc#\	.	(4.ee\	.	.	.	.	.	.	.	.	.
8B\yy	.	.	.	.	.	.	.	.	.	.	.	.	.
8B\Jyy	.	.	.	.	.	.	.	.	.	.	.	.	.
=81	=81	=81	=81	=81	=81	=81	=81	=81	=81	=81	=81	=81	=81
8B\L	.	8dd\)	.	8ff#\)	.	.	.	.	.	.	.	.	.
8B\	.	8r	.	8r	.	.	.	.	.	.	.	.	.
8B\J	.	8r	.	8r	.	.	.	.	.	.	.	.	.
!	!	!LO:LB:g=original	!	!	!	!	!	!	!	!	!	!LO:LB:g=original	!
=82	=82	=82	=82	=82	=82	=82	=82	=82	=82	=82	=82	=82	=82
!LO:SIC:o:s:t:=:v:przed taktem takt wykreślony	!LO:DY:a:t=f&colon;	!	!LO:DY:a	!	!LO:DY:a	!	!	!	!	!	!	!	!
8B\L	f	8bb\L	f	8bb\L	f	8d\	.	8f#\	.	8bb\L	.	8bb\L	.
8F#\	.	8ff#\	.	8ff#\	.	8r	.	8r	.	8ff#\	.	8ff#\	.
8D\J	.	8dd\J	.	8dd\J	.	8d\	.	8f#\	.	8dd\J	.	8dd\J	.
=83	=83	=83	=83	=83	=83	=83	=83	=83	=83	=83	=83	=83	=83
8B\L	.	8bb\L	.	8bb\L	.	8e\	.	8g\	.	8bb\L	.	8bb\L	.
8G\	.	8gg\	.	8gg\	.	8r	.	8r	.	8gg\	.	8gg\	.
8E\J	.	8ee\J	.	8ee\J	.	8e\	.	8g\	.	8ee\J	.	8ee\J	.
=84	=84	=84	=84	=84	=84	=84	=84	=84	=84	=84	=84	=84	=84
!LO:TX:a:t=P:problem=mixed beam	!	!	!	!	!	!	!	!	!	!	!	!	!
8B\L	.	8bb\L	.	8bb\L	.	8d\	.	8f#\	.	8bb\L	.	8bb\L	.
8BB/	.	8b\	.	8b\	.	8r	.	8r	.	8b\	.	8b\	.
!	!	!	!	!LO:SIC:s=:v:8dd	!	!	!	!	!	!	!	!	!
8D/J	.	8dd\J	.	8ee\J	.	8d\	.	8f#\	.	8dd\J	.	8dd\J	.
!LO:LB:g=original	!	!	!	!	!	!	!	!	!	!	!	!	!
=85	=85	=85	=85	=85	=85	=85	=85	=85	=85	=85	=85	=85	=85
16F#\LL	.	4ff#\	.	4ff#\	.	4A/	.	4f#\	.	4ff#\	.	4ff#\	.
16G\	.	.	.	.	.	.	.	.	.	.	.	.	.
16F#\	.	.	.	.	.	.	.	.	.	.	.	.	.
16E\	.	.	.	.	.	.	.	.	.	.	.	.	.
16D\	.	8r	.	8r	.	8r	.	8r	.	8r	.	8r	.
16C#\JJ	.	.	.	.	.	.	.	.	.	.	.	.	.
=86	=86	=86	=86	=86	=86	=86	=86	=86	=86	=86	=86	=86	=86
!LO:TX:a:t=P:problem=mixed beam	!LO:DY:a	!	!LO:DY:a	!	!LO:DY:a	!LO:TX:a:t=12.	!	!	!	!	!	!	!
!	!	!	!	!	!	!LO:N:vis=00	!	!LO:N:vis=00	!	!	!	!	!
8BB/L	p	(4.ff#\	p	(4.dd\	p	1.r	.	1.r	.	4.r	.	4.r	.
8B\	.	.	.	.	.	.	.	.	.	.	.	.	.
8B\J	.	.	.	.	.	.	.	.	.	.	.	.	.
=87	=87	=87	=87	=87	=87	=87	=87	=87	=87	=87	=87	=87	=87
8B\L	.	8gg\)	.	8ee\)	.	.	.	.	.	8r	.	8r	.
!	!	!	!	!	!	!	!	!	!	!	!LO:DY:a	!	!
8B\	.	8r	.	8r	.	.	.	.	.	(8gg\L	p	(8bb\L	.
8B\J	.	8r	.	8r	.	.	.	.	.	8ee\J)	.	8gg\J)	.
=88	=88	=88	=88	=88	=88	=88	=88	=88	=88	=88	=88	=88	=88
8B\L	.	(4.ee\	.	(4.cc#\	.	.	.	.	.	4.r	.	4.r	.
8B\	.	.	.	.	.	.	.	.	.	.	.	.	.
8B\J	.	.	.	.	.	.	.	.	.	.	.	.	.
=89	=89	=89	=89	=89	=89	=89	=89	=89	=89	=89	=89	=89	=89
8B\L	.	8ff#\)	.	8dd\)	.	.	.	.	.	8r	.	8r	.
8B\	.	8r	.	8r	.	.	.	.	.	(8ff#\L	.	(8bb\L	.
8B\J	.	8r	.	8r	.	.	.	.	.	8dd\J)	.	8ff#\J)	.
!	!	!	!	!LO:LB:g=original	!	!	!	!	!	!	!	!	!
=90	=90	=90	=90	=90	=90	=90	=90	=90	=90	=90	=90	=90	=90
!	!LO:DY:a	!	!LO:DY:a:t=f&colon;	!	!LO:DY:a	!	!	!	!	!	!	!	!
!	!	!	!	!	!	!LO:N:vis=00	!	!LO:N:vis=00	!	!LO:N:vis=00	!	!LO:N:vis=00	!
8BB/L	f	8B/L	f	8B/L	f	1.r	.	1.r	.	1.r	.	1.r	.
8D/	.	8d/	.	8d/	.	.	.	.	.	.	.	.	.
8F#/J	.	8f#/J	.	8f#/J	.	.	.	.	.	.	.	.	.
=91	=91	=91	=91	=91	=91	=91	=91	=91	=91	=91	=91	=91	=91
8B\L	.	8b/L	.	8b/L	.	.	.	.	.	.	.	.	.
8F#\	.	8f#/	.	8f#/	.	.	.	.	.	.	.	.	.
8D\J	.	8d/J	.	8d/J	.	.	.	.	.	.	.	.	.
=92	=92	=92	=92	=92	=92	=92	=92	=92	=92	=92	=92	=92	=92
8B\L	.	8b/L	.	8b/L	.	.	.	.	.	.	.	.	.
8G\	.	8g/	.	8g/	.	.	.	.	.	.	.	.	.
8E\J	.	8e/J	.	8e/J	.	.	.	.	.	.	.	.	.
=93	=93	=93	=93	=93	=93	=93	=93	=93	=93	=93	=93	=93	=93
8B\L	.	8b/L	.	8b/L	.	.	.	.	.	.	.	.	.
8F#\	.	8f#/	.	8f#/	.	.	.	.	.	.	.	.	.
8D\J	.	8d/J	.	8d/J	.	.	.	.	.	.	.	.	.
=94	=94	=94	=94	=94	=94	=94	=94	=94	=94	=94	=94	=94	=94
!	!	!	!	!	!	!LO:N:vis=00	!	!LO:N:vis=00	!	!LO:N:vis=00	!	!LO:N:vis=00	!
8E\L	.	8e/L	.	8e/L	.	1.r	.	1.r	.	1.r	.	1.r	.
8C#\	.	8c#/	.	8c#/	.	.	.	.	.	.	.	.	.
8F#\J	.	8f#/J	.	8f#/J	.	.	.	.	.	.	.	.	.
=95	=95	=95	=95	=95	=95	=95	=95	=95	=95	=95	=95	=95	=95
4G\	.	4g/	.	4g/	.	.	.	.	.	.	.	.	.
8r	.	8r	.	8r	.	.	.	.	.	.	.	.	.
=96	=96	=96	=96	=96	=96	=96	=96	=96	=96	=96	=96	=96	=96
8B\L	.	8b/L	.	8b/L	.	.	.	.	.	.	.	.	.
8E\	.	8e/	.	8e/	.	.	.	.	.	.	.	.	.
8G\J	.	8f#/J	.	8f#/J	.	.	.	.	.	.	.	.	.
=97	=97	=97	=97	=97	=97	=97	=97	=97	=97	=97	=97	=97	=97
!LO:TX:a:t=P:problem=mixed beam	!	!	!	!	!	!	!	!	!	!	!	!	!
16BB/LL	.	4B/	.	4B/	.	.	.	.	.	.	.	.	.
16B\	.	.	.	.	.	.	.	.	.	.	.	.	.
16A\	.	.	.	.	.	.	.	.	.	.	.	.	.
16G\	.	.	.	.	.	.	.	.	.	.	.	.	.
16F#\	.	8r	.	8r	.	.	.	.	.	.	.	.	.
16E\JJ	.	.	.	.	.	.	.	.	.	.	.	.	.
!	!	!LO:LB:g=original	!	!	!	!	!	!	!	!	!	!	!
=98	=98	=98	=98	=98	=98	=98	=98	=98	=98	=98	=98	=98	=98
!	!	!	!	!	!	!LO:TX:a:t=P:problem= takty powtórzone repetycją	!	!	!	!	!	!	!
!	!	!	!	!	!	!	!	!	!LO:DY:a	!	!LO:DY:a	!	!LO:DY:a
8D\L	.	8d/L	.	8d/L	.	8D/L	f	8D/L	f	8d/L	f	8d/L	f
8F#\	.	8f#/	.	8f#/	.	8F#/	.	8F#/	.	8f#/	.	8f#/	.
8A\J	.	8a/J	.	8a/J	.	8A/J	.	8A/J	.	8a/J	.	8a/J	.
!LO:LB:g=original	!	!	!	!	!	!	!	!	!	!	!	!	!
=99	=99	=99	=99	=99	=99	=99	=99	=99	=99	=99	=99	=99	=99
8D\L	.	8d/L	.	8d/L	.	8D/L	.	8D/L	.	8d/L	.	8d/L	.
8F#\	.	8f#/	.	8f#/	.	8F#/	.	8F#/	.	8f#/	.	8f#/	.
8A\J	.	8a/J	.	8a/J	.	8A/J	.	8A/J	.	8a/J	.	8a/J	.
!	!	!	!	!	!	!LO:LB:g=original	!	!	!	!	!	!	!
=100	=100	=100	=100	=100	=100	=100	=100	=100	=100	=100	=100	=100	=100
!LO:TX:a:t=P:problem=mixed beam	!	!LO:TX:a:t=P:problem=mixed beam	!	!LO:TX:a:t=P:problem=mixed beam	!	!LO:TX:a:t=P:problem=mixed beam	!	!LO:TX:a:t=P:problem=mixed beam	!	!LO:TX:a:t=P:problem=mixed beam	!	!LO:TX:a:t=P:problem=mixed beam	!
8d\L	.	8dd\L	.	8dd\L	.	8d\L	.	8d/L	.	8dd\L	.	8dd\L	.
8D/	.	8d/	.	8d/	.	8D/	.	8D/	.	8d/	.	8d/	.
8F#/J	.	8f#/J	.	8f#/J	.	8F#/J	.	8F#/J	.	8f#/J	.	8f#/J	.
=101	=101	=101	=101	=101	=101	=101	=101	=101	=101	=101	=101	=101	=101
4A\	.	4a/	.	4a/	.	4A/	.	4A/	.	4a/	.	4a/	.
8r	.	8r	.	8r	.	8r	.	8r	.	8r	.	8r	.
=102	=102	=102	=102	=102	=102	=102	=102	=102	=102	=102	=102	=102	=102
!	!	!	!	!LO:TX:a:t=P:problem=mixed beam	!	!	!	!	!	!	!	!	!
8r	.	8r	.	16ff#\LL	.	8D/	.	8A/	.	8dd\	.	8ff#\	.
.	.	.	.	16a/	.	.	.	.	.	.	.	.	.
8D\L	.	8f#/L	.	16a/	.	8r	.	8r	.	8r	.	8r	.
.	.	.	.	16a/	.	.	.	.	.	.	.	.	.
8D\J	.	8f#/J	.	16a/	.	8r	.	8r	.	8r	.	8r	.
.	.	.	.	16a/JJ	.	.	.	.	.	.	.	.	.
!	!	!	!	!LO:LB:g=original	!	!	!	!	!	!LO:LB:g=original	!	!	!
=103	=103	=103	=103	=103	=103	=103	=103	=103	=103	=103	=103	=103	=103
!	!	!	!	!LO:TX:a:t=P:problem=mixed beam	!	!	!	!LO:TX:a:t=P:problem= takt powtórzony repetycją	!	!	!	!	!
8r	.	8r	.	16gg\LL	.	8A/	.	8A/	.	8ee\	.	8gg\	.
.	.	.	.	16a\	.	.	.	.	.	.	.	.	.
8C#/L	.	8e/L	.	16a\	.	8r	.	8r	.	8r	.	8r	.
.	.	.	.	16a\	.	.	.	.	.	.	.	.	.
8C#/J	.	8e/J	.	16a\	.	8r	.	8r	.	8r	.	8r	.
.	.	.	.	16a\JJ	.	.	.	.	.	.	.	.	.
=104	=104	=104	=104	=104	=104	=104	=104	=104	=104	=104	=104	=104	=104
!	!	!	!	!LO:TX:a:t=P:problem=mixed beam	!	!	!	!	!	!	!	!	!
8r	.	8r	.	16ee\LL	.	8A/	.	8A/yy	.	8cc#\	.	8ee\	.
.	.	.	.	16a/	.	.	.	.	.	.	.	.	.
8E\L	.	8g/L	.	16a/	.	8r	.	8ryy	.	8r	.	8r	.
.	.	.	.	16a/	.	.	.	.	.	.	.	.	.
8E\J	.	8g/J	.	16a/	.	8r	.	8ryy	.	8r	.	8r	.
.	.	.	.	16a/JJ	.	.	.	.	.	.	.	.	.
!	!	!	!	!	!	!	!	!	!	!	!	!LO:LB:g=original	!
=105	=105	=105	=105	=105	=105	=105	=105	=105	=105	=105	=105	=105	=105
!	!	!	!	!LO:TX:a:t=P:problem=mixed beam	!	!	!	!	!	!	!	!	!
8r	.	8r	.	16aa\LL	.	8D/	.	8d\	.	8ff#\	.	8aa\	.
.	.	.	.	16a/	.	.	.	.	.	.	.	.	.
8D\L	.	8f#/L	.	16a/	.	8r	.	8r	.	8r	.	8r	.
.	.	.	.	16a/	.	.	.	.	.	.	.	.	.
8D\J	.	8f#/J	.	16a/	.	8r	.	8r	.	8r	.	8r	.
.	.	.	.	16a/JJ	.	.	.	.	.	.	.	.	.
=106	=106	=106	=106	=106	=106	=106	=106	=106	=106	=106	=106	=106	=106
!	!	!	!	!	!	!	!LO:DY:a	!LO:SIC:o:s:t:=:v: brak 8 taktów	!	!	!	!	!
8f#\L	.	8d/L	.	8d/L	.	8D/Lyy	f	4.ryy	.	8d/L	.	8d/L	.
8d\	.	8f#/	.	8f#/	.	8F#/yy	.	.	.	8f#/	.	8f#/	.
8A\J	.	8a/J	.	8a/J	.	8A/Jyy	.	.	.	8a/J	.	8a/J	.
=107	=107	=107	=107	=107	=107	=107	=107	=107	=107	=107	=107	=107	=107
8d\L	.	8d/L	.	8d/L	.	8D/Lyy	.	4.ryy	.	8d/L	.	8d/L	.
8A\	.	8f#/	.	8f#/	.	8F#/yy	.	.	.	8f#/	.	8f#/	.
8F#\J	.	8a/J	.	8a/J	.	8A/Jyy	.	.	.	8a/J	.	8a/J	.
=108	=108	=108	=108	=108	=108	=108	=108	=108	=108	=108	=108	=108	=108
!	!	!LO:TX:a:t=P:problem=mixed beam	!	!LO:TX:a:t=P:problem=mixed beam	!	!LO:TX:a:t=P:problem=mixed beam	!	!	!	!LO:TX:a:t=P:problem=mixed beam	!	!LO:TX:a:t=P:problem=mixed beam	!
8A\L	.	8dd\L	.	8dd\L	.	8d\Lyy	.	4.ryy	.	8dd\L	.	8dd\L	.
8F#\	.	8d/	.	8d/	.	8D/yy	.	.	.	8d/	.	8d/	.
8D\J	.	8f#/J	.	8f#/J	.	8F#/Jyy	.	.	.	8f#/J	.	8f#/J	.
=109	=109	=109	=109	=109	=109	=109	=109	=109	=109	=109	=109	=109	=109
4AA/	.	4a/	.	4a/	.	4A/yy	.	4.ryy	.	4a/	.	4a/	.
8r	.	8r	.	8r	.	8ryy	.	.	.	8r	.	8r	.
=110	=110	=110	=110	=110	=110	=110	=110	=110	=110	=110	=110	=110	=110
!	!	!LO:TX:a:t=P:problem=mixed beam	!	!	!	!	!	!	!	!	!	!	!
8D\	.	16ff#\LL	.	8r	.	8D/yy	.	4.ryy	.	8dd\	.	8ff#\	.
.	.	16a/	.	.	.	.	.	.	.	.	.	.	.
8r	.	16a/	.	8f#/L	.	8ryy	.	.	.	8r	.	8r	.
.	.	16a/	.	.	.	.	.	.	.	.	.	.	.
8F#\	.	16a/	.	8f#/J	.	8ryy	.	.	.	8r	.	8r	.
.	.	16a/JJ	.	.	.	.	.	.	.	.	.	.	.
=111	=111	=111	=111	=111	=111	=111	=111	=111	=111	=111	=111	=111	=111
!	!	!LO:TX:a:t=P:problem=mixed beam	!	!	!	!	!	!	!	!	!	!	!
8E/L	.	16gg\LL	.	8r	.	8A/yy	.	4.ryy	.	8ee\	.	8gg\	.
.	.	16a/	.	.	.	.	.	.	.	.	.	.	.
8C#/	.	16a/	.	8e/L	.	8ryy	.	.	.	8r	.	8r	.
.	.	16a/	.	.	.	.	.	.	.	.	.	.	.
8AA/J	.	16a/	.	8e/J	.	8ryy	.	.	.	8r	.	8r	.
.	.	16a/JJ	.	.	.	.	.	.	.	.	.	.	.
!	!	!LO:LB:g=original	!	!	!	!	!	!	!	!	!	!	!
=112	=112	=112	=112	=112	=112	=112	=112	=112	=112	=112	=112	=112	=112
!	!	!LO:TX:a:t=P:problem=mixed beam	!	!	!	!	!	!	!	!	!	!	!
8F#\	.	16ee\LL	.	8r	.	8A/yy	.	4.ryy	.	8cc#\	.	8ee\	.
.	.	16a/	.	.	.	.	.	.	.	.	.	.	.
8r	.	16a/	.	8g/L	.	8ryy	.	.	.	8r	.	8r	.
.	.	16a/	.	.	.	.	.	.	.	.	.	.	.
8A\	.	16a/	.	8g/J	.	8ryy	.	.	.	8r	.	8r	.
.	.	16a/JJ	.	.	.	.	.	.	.	.	.	.	.
=113	=113	=113	=113	=113	=113	=113	=113	=113	=113	=113	=113	=113	=113
!	!	!LO:TX:a:t=P:problem=mixed beam	!	!	!	!	!	!	!	!	!	!	!
8G\L	.	16aa\LL	.	8r	.	8D/yy	.	4.ryy	.	8ff#\	.	8aa\	.
.	.	16a/	.	.	.	.	.	.	.	.	.	.	.
8E\	.	16a/	.	8f#/L	.	8ryy	.	.	.	8r	.	8r	.
.	.	16a/	.	.	.	.	.	.	.	.	.	.	.
8C#\J	.	16a/	.	8f#/J	.	8ryy	.	.	.	8r	.	8r	.
.	.	16a/JJ	.	.	.	.	.	.	.	.	.	.	.
!LO:LB:g=original	!	!	!	!	!	!	!	!	!	!	!	!	!
=114	=114	=114	=114	=114	=114	=114	=114	=114	=114	=114	=114	=114	=114
8D\	.	16ff#\LL	.	16ff#\LL	.	8f#\L	.	8f#\L	.	8ff#\L	.	8ff#\L	.
.	.	16ff#\	.	16ff#\	.	.	.	.	.	.	.	.	.
8r	.	16dd\	.	16dd\	.	8d\	.	8d\	.	8dd\	.	8dd\	.
.	.	16dd\	.	16dd\	.	.	.	.	.	.	.	.	.
8F#\	.	16a\	.	16a\	.	8A\J	.	8A\J	.	8a\J	.	8a\J	.
.	.	16a\JJ	.	16a\JJ	.	.	.	.	.	.	.	.	.
!	!	!	!	!LO:LB:g=original	!	!	!	!	!	!	!	!	!
=115	=115	=115	=115	=115	=115	=115	=115	=115	=115	=115	=115	=115	=115
!	!	!	!	!	!	!LO:TX:a:t=P:problem=mixed beam	!	!	!	!	!	!	!
8E/L	.	16dd\LL	.	16dd\LL	.	8d\L	.	8d/L	.	8dd\L	.	8dd\L	.
.	.	16dd\	.	16dd\	.	.	.	.	.	.	.	.	.
8C#/	.	16a\	.	16a\	.	8A/	.	8A/	.	8a\	.	8a\	.
.	.	16a\	.	16a\	.	.	.	.	.	.	.	.	.
8AA/J	.	16f#\	.	16f#\	.	8F#/J	.	8F#/J	.	8f#\J	.	8f#\J	.
.	.	16f#\JJ	.	16f#\JJ	.	.	.	.	.	.	.	.	.
=116	=116	=116	=116	=116	=116	=116	=116	=116	=116	=116	=116	=116	=116
8D\L	.	16a/LL	.	16a/LL	.	8A/L	.	8A/L	.	8a/L	.	8aa\L	.
.	.	16a/	.	16a/	.	.	.	.	.	.	.	.	.
8F#\	.	16f#/	.	16f#/	.	8F#/	.	8F#/	.	8f#/	.	8ff#\	.
.	.	16f#/	.	16f#/	.	.	.	.	.	.	.	.	.
8A\J	.	16d/	.	16d/	.	8D/J	.	8D/J	.	8d/J	.	8dd\J	.
.	.	16d/JJ	.	16d/JJ	.	.	.	.	.	.	.	.	.
!	!	!	!	!	!	!	!	!	!	!LO:LB:g=original	!	!	!
=117	=117	=117	=117	=117	=117	=117	=117	=117	=117	=117	=117	=117	=117
4d\	.	16A/LL	.	4A/	.	4AA/	.	4AA/	.	4a/	.	4aa\	.
.	.	16a/	.	.	.	.	.	.	.	.	.	.	.
.	.	16a/	.	.	.	.	.	.	.	.	.	.	.
.	.	16a/	.	.	.	.	.	.	.	.	.	.	.
8r	.	16a/	.	8r	.	8r	.	8r	.	8r	.	8r	.
.	.	16a/JJ	.	.	.	.	.	.	.	.	.	.	.
!	!	!	!	!	!	!	!	!LO:LB:g=original	!	!	!	!	!
=118	=118	=118	=118	=118	=118	=118	=118	=118	=118	=118	=118	=118	=118
!LO:TX:a:i:t=Solo	!	!	!	!LO:SIC:s=:v:8fn	!	!LO:TX:a:t=31.	!	!	!	!	!	!	!
!	!	!	!	!	!	!LO:N:vis=00	!	!LO:N:vis=00	!	!LO:N:vis=00	!	!LO:N:vis=00	!
16D\LL	.	16a/LL	.	8f#/	.	1.r	.	1.r	.	1.r	.	1.r	.
16E\	.	16a/	.	.	.	.	.	.	.	.	.	.	.
16Fn\	.	16a/	.	8r	.	.	.	.	.	.	.	.	.
16G\	.	16a/	.	.	.	.	.	.	.	.	.	.	.
16A\	.	16a/	.	8a/	.	.	.	.	.	.	.	.	.
16F\JJ	.	16a/JJ	.	.	.	.	.	.	.	.	.	.	.
=119	=119	=119	=119	=119	=119	=119	=119	=119	=119	=119	=119	=119	=119
16AA/LL	.	16a/LL	.	8g/L	.	.	.	.	.	.	.	.	.
16BB/	.	16a/	.	.	.	.	.	.	.	.	.	.	.
16C#/	.	16a/	.	8e/	.	.	.	.	.	.	.	.	.
16D/	.	16a/	.	.	.	.	.	.	.	.	.	.	.
16E/	.	16a/	.	8c#/J	.	.	.	.	.	.	.	.	.
16C#/JJ	.	16a/JJ	.	.	.	.	.	.	.	.	.	.	.
=120	=120	=120	=120	=120	=120	=120	=120	=120	=120	=120	=120	=120	=120
16D\LL	.	16a/LL	.	8d/	.	.	.	.	.	.	.	.	.
16E\	.	16a/	.	.	.	.	.	.	.	.	.	.	.
16Fn\	.	16a/	.	8r	.	.	.	.	.	.	.	.	.
16G\	.	16a/	.	.	.	.	.	.	.	.	.	.	.
!	!	!	!	!LO:SIC:s=:v:8fn	!	!	!	!	!	!	!	!	!
16A\	.	16a/	.	8f#/	.	.	.	.	.	.	.	.	.
16F\JJ	.	16a/JJ	.	.	.	.	.	.	.	.	.	.	.
!	!	!LO:LB:g=original	!	!	!	!	!	!	!	!	!	!	!
=121	=121	=121	=121	=121	=121	=121	=121	=121	=121	=121	=121	=121	=121
16A\LL	.	16a/LL	.	8e/L	.	.	.	.	.	.	.	.	.
16G#X\	.	16a/	.	.	.	.	.	.	.	.	.	.	.
16A\	.	16a/	.	8c#/	.	.	.	.	.	.	.	.	.
16E\	.	16a/	.	.	.	.	.	.	.	.	.	.	.
16C#\	.	16a/	.	8A/J	.	.	.	.	.	.	.	.	.
16AA\JJ	.	16a/JJ	.	.	.	.	.	.	.	.	.	.	.
=122	=122	=122	=122	=122	=122	=122	=122	=122	=122	=122	=122	=122	=122
!	!	!	!	!LO:SIC:s=:v:8fn	!	!	!	!	!	!	!	!	!
!	!	!	!	!	!	!LO:N:vis=00	!	!LO:N:vis=00	!	!LO:N:vis=00	!	!LO:N:vis=00	!
16D\LL	.	16a/LL	.	8f#/	.	1.r	.	1.r	.	1.r	.	1.r	.
16E\	.	16a/	.	.	.	.	.	.	.	.	.	.	.
16Fn\	.	16a/	.	8r	.	.	.	.	.	.	.	.	.
16G\	.	16a/	.	.	.	.	.	.	.	.	.	.	.
16A\	.	16a/	.	8a/	.	.	.	.	.	.	.	.	.
16F\JJ	.	16a/JJ	.	.	.	.	.	.	.	.	.	.	.
=123	=123	=123	=123	=123	=123	=123	=123	=123	=123	=123	=123	=123	=123
16G\LL	.	16a/LL	.	8g/L	.	.	.	.	.	.	.	.	.
16A\	.	16a/	.	.	.	.	.	.	.	.	.	.	.
16B-X\	.	16a/	.	8e/	.	.	.	.	.	.	.	.	.
16A\	.	16a/	.	.	.	.	.	.	.	.	.	.	.
16G\	.	16a/	.	8c#/J	.	.	.	.	.	.	.	.	.
16Fn\JJ	.	16a/JJ	.	.	.	.	.	.	.	.	.	.	.
!LO:LB:g=original	!	!	!	!	!	!	!	!	!	!	!	!	!
=124	=124	=124	=124	=124	=124	=124	=124	=124	=124	=124	=124	=124	=124
16E\LL	.	8a/	.	8d/	.	.	.	.	.	.	.	.	.
16Fn\	.	.	.	.	.	.	.	.	.	.	.	.	.
16G\	.	8r	.	8r	.	.	.	.	.	.	.	.	.
16E\	.	.	.	.	.	.	.	.	.	.	.	.	.
16D\	.	8ff#/ 8a/	.	8ff#/ 8a/	.	.	.	.	.	.	.	.	.
16C#\JJ	.	.	.	.	.	.	.	.	.	.	.	.	.
=125	=125	=125	=125	=125	=125	=125	=125	=125	=125	=125	=125	=125	=125
8D\L	.	8ff#/ 8a/	.	8ff#/ 8a/	.	.	.	.	.	.	.	.	.
8D\	.	8r	.	8r	.	.	.	.	.	.	.	.	.
8E\J	.	8r	.	8r	.	.	.	.	.	.	.	.	.
!LO:SIC:o:s:=:v:p pod systemem dopisane innym tuszem (adnotacja późniejsza)	!	!	!	!	!	!	!	!	!	!	!	!	!
.	p	.	.	.	.	.	.	.	.	.	.	.	.
=126	=126	=126	=126	=126	=126	=126	=126	=126	=126	=126	=126	=126	=126
!LO:SIC:o:s:t:=:v:8 taktów w 3 krotnej repetycji (dopisane innym tuszem - adnotacja późniejsza)	!	!	!	!	!	!	!	!	!	!	!	!	!
!LO:SIC:s=:v:4.Fn	!LO:DY:a	!	!LO:DY:a	!	!LO:DY:a	!	!	!	!	!	!	!	!
!	!	!	!	!	!	!LO:N:vis=00	!	!LO:N:vis=00	!	!LO:N:vis=00	!	!LO:N:vis=00	!
4.F#\	p	4.ffn\	p	4.aa\	p	1.r	.	1.r	.	1.r	.	1.r	.
!	!	!	!	!LO:LB:g=original	!	!	!	!	!	!	!	!	!
=127	=127	=127	=127	=127	=127	=127	=127	=127	=127	=127	=127	=127	=127
4.E\	.	4.ee\	.	4.gg\	.	.	.	.	.	.	.	.	.
=128	=128	=128	=128	=128	=128	=128	=128	=128	=128	=128	=128	=128	=128
!	!	!	!	!LO:SIC:s=:v:4.ee	!	!	!	!	!	!	!	!	!
4.C#/	.	4.dd\	.	4.ffn\	.	.	.	.	.	.	.	.	.
=129	=129	=129	=129	=129	=129	=129	=129	=129	=129	=129	=129	=129	=129
!	!	!	!	!LO:SIC:s=:v:4.ffn	!	!	!	!	!	!	!	!	!
4.D\	.	4.cc#\	.	4.ee\	.	.	.	.	.	.	.	.	.
!	!	!	!	!	!	!	!	!	!	!	!	!LO:LB:g=original	!
=130	=130	=130	=130	=130	=130	=130	=130	=130	=130	=130	=130	=130	=130
!	!	!	!	!	!	!LO:N:vis=00	!	!LO:N:vis=00	!	!LO:N:vis=00	!	!LO:N:vis=00	!
8D/L	.	8ffn\	.	8aa\	.	1.r	.	1.r	.	1.r	.	1.r	.
8D/	.	8r	.	8r	.	.	.	.	.	.	.	.	.
8D/J	.	8r	.	8r	.	.	.	.	.	.	.	.	.
=131	=131	=131	=131	=131	=131	=131	=131	=131	=131	=131	=131	=131	=131
8GG/L	.	8dd\	.	8bb-X\	.	.	.	.	.	.	.	.	.
8GG/	.	8r	.	8r	.	.	.	.	.	.	.	.	.
8GG/J	.	8r	.	8r	.	.	.	.	.	.	.	.	.
=132	=132	=132	=132	=132	=132	=132	=132	=132	=132	=132	=132	=132	=132
8AA/L	.	8g/	.	8cc#\	.	.	.	.	.	.	.	.	.
8AA/	.	8r	.	8r	.	.	.	.	.	.	.	.	.
8AA/J	.	8r	.	8r	.	.	.	.	.	.	.	.	.
=133	=133	=133	=133	=133	=133	=133	=133	=133	=133	=133	=133	=133	=133
4D\	.	8fn/	.	8dd\	.	.	.	.	.	.	.	.	.
.	.	8r	.	8r	.	.	.	.	.	.	.	.	.
8r	.	8r	.	8r	.	.	.	.	.	.	.	.	.
!	!	!LO:PB:g=original	!	!	!	!	!	!	!	!	!	!	!
=134	=134	=134	=134	=134	=134	=134	=134	=134	=134	=134	=134	=134	=134
!	!LO:DY:a	!	!	!LO:TX:a:i:t=Solo	!	!	!	!	!	!	!	!	!
!	!	!	!	!	!	!LO:N:vis=00	!	!LO:N:vis=00	!	!LO:N:vis=00	!	!LO:N:vis=00	!
4.F#\yy	p	4.a/	.	(4a\	.	1.r	.	1.r	.	1.r	.	1.r	.
.	.	.	.	8dd\)	.	.	.	.	.	.	.	.	.
=135	=135	=135	=135	=135	=135	=135	=135	=135	=135	=135	=135	=135	=135
4.E\yy	.	4.g/	.	(4dd\	.	.	.	.	.	.	.	.	.
.	.	.	.	8cc#\)	.	.	.	.	.	.	.	.	.
=136	=136	=136	=136	=136	=136	=136	=136	=136	=136	=136	=136	=136	=136
4.C#/yy	.	4.a/	.	(4ee\	.	.	.	.	.	.	.	.	.
.	.	.	.	8gg\)	.	.	.	.	.	.	.	.	.
=137	=137	=137	=137	=137	=137	=137	=137	=137	=137	=137	=137	=137	=137
4.D\yy	.	4.a/	.	(4gg\	.	.	.	.	.	.	.	.	.
.	.	.	.	8ff#\)	.	.	.	.	.	.	.	.	.
=138	=138	=138	=138	=138	=138	=138	=138	=138	=138	=138	=138	=138	=138
!	!	!	!	!	!	!LO:N:vis=00	!	!LO:N:vis=00	!	!LO:N:vis=00	!	!LO:N:vis=00	!
8D/Lyy	.	(4ff#\	.	(4aa\	.	1.r	.	1.r	.	1.r	.	1.r	.
8D/yy	.	.	.	.	.	.	.	.	.	.	.	.	.
8D/Jyy	.	8dd\)	.	8ff#\)	.	.	.	.	.	.	.	.	.
!	!	!	!	!LO:LB:g=original	!	!	!	!	!	!	!	!	!
=139	=139	=139	=139	=139	=139	=139	=139	=139	=139	=139	=139	=139	=139
8GG/Lyy	.	8gg\L	.	8b\L	.	.	.	.	.	.	.	.	.
8GG/yy	.	8ee\	.	8gg\	.	.	.	.	.	.	.	.	.
8GG/Jyy	.	8cc#\J	.	8ee\J	.	.	.	.	.	.	.	.	.
=140	=140	=140	=140	=140	=140	=140	=140	=140	=140	=140	=140	=140	=140
8AA/Lyy	.	8g/L	.	8cc#\L	.	.	.	.	.	.	.	.	.
8AA/yy	.	8g/	.	8aa\	.	.	.	.	.	.	.	.	.
8AA/Jyy	.	8g/J	.	8cc#\J	.	.	.	.	.	.	.	.	.
=141	=141	=141	=141	=141	=141	=141	=141	=141	=141	=141	=141	=141	=141
4D\yy	.	4f#/	.	4dd\	.	.	.	.	.	.	.	.	.
8ryy	.	8r	.	8r	.	.	.	.	.	.	.	.	.
=142	=142	=142	=142	=142	=142	=142	=142	=142	=142	=142	=142	=142	=142
!	!LO:DY:a	!LO:TX:a:i:t=Solo	!	!	!	!	!	!	!	!	!	!	!
!	!	!	!	!	!	!LO:N:vis=00	!	!LO:N:vis=00	!	!LO:N:vis=00	!	!LO:N:vis=00	!
4.F#\yy	p	(4a/	.	4.a/	.	1.r	.	1.r	.	1.r	.	1.r	.
.	.	8dd\)	.	.	.	.	.	.	.	.	.	.	.
=143	=143	=143	=143	=143	=143	=143	=143	=143	=143	=143	=143	=143	=143
4.E\yy	.	(4dd\	.	4.g/	.	.	.	.	.	.	.	.	.
.	.	8cc#\)	.	.	.	.	.	.	.	.	.	.	.
=144	=144	=144	=144	=144	=144	=144	=144	=144	=144	=144	=144	=144	=144
4.C#/yy	.	(4ee\	.	4.a/	.	.	.	.	.	.	.	.	.
.	.	8g/)	.	.	.	.	.	.	.	.	.	.	.
=145	=145	=145	=145	=145	=145	=145	=145	=145	=145	=145	=145	=145	=145
4.D\yy	.	(4g/	.	4.a/	.	.	.	.	.	.	.	.	.
.	.	8f#/)	.	.	.	.	.	.	.	.	.	.	.
=146	=146	=146	=146	=146	=146	=146	=146	=146	=146	=146	=146	=146	=146
!	!	!	!	!	!	!LO:N:vis=0	!	!LO:N:vis=0	!	!LO:N:vis=0	!	!LO:N:vis=0	!
8D/Lyy	.	(4aa\	.	(4ff#\	.	2.r	.	2.r	.	2.r	.	2.r	.
8D/yy	.	.	.	.	.	.	.	.	.	.	.	.	.
8D/Jyy	.	8ff#\)	.	8dd\)	.	.	.	.	.	.	.	.	.
=147	=147	=147	=147	=147	=147	=147	=147	=147	=147	=147	=147	=147	=147
8GG/Lyy	.	8b\L	.	8gg\L	.	.	.	.	.	.	.	.	.
8GG/yy	.	(8gg\	.	(8ee\	.	.	.	.	.	.	.	.	.
8GG/Jyy	.	8ee\J)	.	8cc#\J)	.	.	.	.	.	.	.	.	.
=148	=148	=148	=148	=148	=148	=148	=148	=148	=148	=148	=148	=148	=148
8AA/Lyy	.	8a\L	.	4g/	.	4.r	.	4.r	.	4.r	.	4.r	.
8AA/yy	.	8ee\	.	.	.	.	.	.	.	.	.	.	.
8AA/Jyy	.	8cc#\J	.	8g/	.	.	.	.	.	.	.	.	.
=149	=149	=149	=149	=149	=149	=149	=149	=149	=149	=149	=149	=149	=149
4D\yy	.	4dd\	.	16f#/LL	.	4.D/	.	4.F#/	.	4.d/	.	4.ff#\	.
.	.	.	.	16d/	.	.	.	.	.	.	.	.	.
.	.	.	.	16d/	.	.	.	.	.	.	.	.	.
.	.	.	.	16d/	.	.	.	.	.	.	.	.	.
8ryy	.	8r	.	16d/	.	.	.	.	.	.	.	.	.
.	.	.	.	16d/JJ	.	.	.	.	.	.	.	.	.
=150	=150	=150	=150	=150	=150	=150	=150	=150	=150	=150	=150	=150	=150
4D\	.	4.r	.	16f#/LL	.	4.D/	.	4.F#/	.	4.d/	.	4.ff#\	.
.	.	.	.	16d/	.	.	.	.	.	.	.	.	.
.	.	.	.	16d/	.	.	.	.	.	.	.	.	.
.	.	.	.	16d/	.	.	.	.	.	.	.	.	.
8r	.	.	.	16d/	.	.	.	.	.	.	.	.	.
.	.	.	.	16d/JJ	.	.	.	.	.	.	.	.	.
!	!	!LO:LB:g=original	!	!	!	!	!	!	!	!	!	!	!
=151	=151	=151	=151	=151	=151	=151	=151	=151	=151	=151	=151	=151	=151
4D\	.	16f#/LL	.	16a/LL	.	4.F#/	.	4.A/	.	4.f#/	.	4.aa\	.
.	.	16d/	.	16f#/	.	.	.	.	.	.	.	.	.
.	.	16d/	.	16f#/	.	.	.	.	.	.	.	.	.
.	.	16d/	.	16f#/	.	.	.	.	.	.	.	.	.
8r	.	16d/	.	16f#/	.	.	.	.	.	.	.	.	.
.	.	16d/JJ	.	16f#/JJ	.	.	.	.	.	.	.	.	.
!	!	!	!	!LO:LB:g=original	!	!	!	!	!	!	!	!	!
=152	=152	=152	=152	=152	=152	=152	=152	=152	=152	=152	=152	=152	=152
4D\	.	16f#/LL	.	16a/LL	.	4.F#/	.	4.A/	.	4.f#/	.	4.aa\	.
.	.	16d/	.	16f#/	.	.	.	.	.	.	.	.	.
.	.	16d/	.	16f#/	.	.	.	.	.	.	.	.	.
.	.	16d/	.	16f#/	.	.	.	.	.	.	.	.	.
8r	.	16d/	.	16f#/	.	.	.	.	.	.	.	.	.
.	.	16d/JJ	.	16f#/JJ	.	.	.	.	.	.	.	.	.
!	!	!	!	!	!	!LO:LB:g=original	!	!	!	!	!	!	!
=153	=153	=153	=153	=153	=153	=153	=153	=153	=153	=153	=153	=153	=153
8D\L	.	16a/LL	.	16dd\LL	.	4.A/	.	4.d\	.	4.a/	.	4.dd\	.
.	.	16f#/	.	16a\	.	.	.	.	.	.	.	.	.
8D\	.	16f#/	.	16a\	.	.	.	.	.	.	.	.	.
.	.	16f#/	.	16a\	.	.	.	.	.	.	.	.	.
!	!LO:DY:a	!	!	!	!	!	!	!	!	!	!	!	!
8D\J	f	16f#/	.	16a\	.	.	.	.	.	.	.	.	.
.	.	16f#/JJ	.	16a\JJ	.	.	.	.	.	.	.	.	.
=154	=154	=154	=154	=154	=154	=154	=154	=154	=154	=154	=154	=154	=154
8D\L	.	16a/LL	.	16dd\LL	.	4.A/	.	4.d\	.	4.a/	.	4.dd\	.
.	.	16f#/	.	16a\	.	.	.	.	.	.	.	.	.
8D\	.	16f#/	.	16a\	.	.	.	.	.	.	.	.	.
.	.	16f#/	.	16a\	.	.	.	.	.	.	.	.	.
8D\J	.	16f#/	.	16a\	.	.	.	.	.	.	.	.	.
.	.	16f#/JJ	.	16a\JJ	.	.	.	.	.	.	.	.	.
!LO:LB:g=original	!	!	!	!	!	!	!	!	!	!	!	!	!
=155	=155	=155	=155	=155	=155	=155	=155	=155	=155	=155	=155	=155	=155
8D\	.	16dd\LL	.	16ff#\LL	.	8F#/	.	8A/	.	4dd\	.	4ff#\	.
.	.	16a\	.	16a\	.	.	.	.	.	.	.	.	.
8r	.	16a\	.	16a\	.	8r	.	8r	.	.	.	.	.
.	.	16a\JJ	.	16a\JJ	.	.	.	.	.	.	.	.	.
8AA/	.	16ee\LL	.	16gg\LL	.	8A/	.	8A/	.	8ee\	.	8gg\	.
.	.	16a\JJ	.	16a\JJ	.	.	.	.	.	.	.	.	.
=156	=156	=156	=156	=156	=156	=156	=156	=156	=156	=156	=156	=156	=156
8D\	.	16dd\LL	.	16ff#\LL	.	8F#/	.	8A/	.	4dd\	.	4ff#\	.
.	.	16a\	.	16a\	.	.	.	.	.	.	.	.	.
8r	.	16a\	.	16a\	.	8r	.	8r	.	.	.	.	.
.	.	16a\JJ	.	16a\JJ	.	.	.	.	.	.	.	.	.
8AA/	.	16ee\LL	.	16gg\LL	.	8A/	.	8A/	.	8ee\	.	8gg\	.
.	.	16a\JJ	.	16a\JJ	.	.	.	.	.	.	.	.	.
=157	=157	=157	=157	=157	=157	=157	=157	=157	=157	=157	=157	=157	=157
!	!	!	!	!	!	!LO:TX:a:t=problem&colon; 2 taktach nieczytelna poprawka; prawdodpodobnie chodzi o 2 ćwierćnuty z kropką (jak w cr1)	!	!	!	!	!	!	!
!	!	!	!	!	!	!LO:N:vis=8.	!	!	!	!	!	!	!
8D\L	.	8dd\	.	8ff#/ 8a/	.	8F#/	.	4.A/	.	4.dd\	.	4.ff#\	.
8F#\	.	8r	.	8r	.	8r	.	.	.	.	.	.	.
!	!	!	!	!	!	!LO:N:vis=8.	!	!	!	!	!	!	!
8A\J	.	8ff#/ 8a/	.	8ff#/ 8a/	.	8F#/	.	.	.	.	.	.	.
=158	=158	=158	=158	=158	=158	=158	=158	=158	=158	=158	=158	=158	=158
!	!	!	!	!	!	!LO:SIC:o:s:t:=:v: brak taktu	!	!	!	!	!	!	!
8d\L	.	8ff#/ 8a/	.	8ff#/ 8a/	.	4.ryy	.	4.A/	.	4.dd\	.	4.ff#\	.
8A\	.	8r	.	8r	.	.	.	.	.	.	.	.	.
8F#\J	.	8ff#/ 8a/	.	8ff#/ 8a/	.	.	.	.	.	.	.	.	.
=159	=159	=159	=159	=159	=159	=159	=159	=159	=159	=159	=159	=159	=159
8D\L	.	8ff#/L 8a/ 8d/	.	8ff#/L 8a/ 8d/	.	8F#/L	.	8A/L	.	8dd\L	.	8ff#\L	.
8D\	.	8ff#/ 8a/	.	8ff#/ 8a/	.	8F#/	.	8A/	.	8dd\	.	8ff#\	.
8D\J	.	8ff#/J 8a/	.	8ff#/J 8a/	.	8F#/J	.	8A/J	.	8dd\J	.	8ff#\J	.
=160	=160	=160	=160	=160	=160	=160	=160	=160	=160	=160	=160	=160	=160
4D\	.	4ff#/ 4a/	.	4ff#/ 4a/	.	4F#/	.	4A/	.	4dd\	.	4ff#\	.
8r	.	8r	.	8r	.	8r	.	8r	.	8r	.	8r	.
=161	=161	=161	=161	=161	=161	=161	=161	=161	=161	=161	=161	=161	=161
16D\LL	.	4ff#/ 4a/ 4d/	.	4ff#/ 4a/ 4d/	.	4F#/	.	4d\	.	4ff#\	.	4aa\	.
16d\	.	.	.	.	.	.	.	.	.	.	.	.	.
16A\	.	.	.	.	.	.	.	.	.	.	.	.	.
16F#\JJ	.	.	.	.	.	.	.	.	.	.	.	.	.
8D\	.	8r	.	8r	.	8r	.	8r	.	8r	.	8r	.
!	!	!	!	!LO:LB:g=original	!	!	!	!	!	!LO:LB:g=original	!	!	!
=162	=162	=162	=162	=162	=162	=162	=162	=162	=162	=162	=162	=162	=162
16r	.	4ff#/ 4a/ 4d/	.	4ff#/ 4a/ 4d/	.	4F#/	.	4d\	.	4ff#\	.	4aa\	.
16d\LL	.	.	.	.	.	.	.	.	.	.	.	.	.
16A\	.	.	.	.	.	.	.	.	.	.	.	.	.
16F#\JJ	.	.	.	.	.	.	.	.	.	.	.	.	.
8D\	.	8r	.	8r	.	8r	.	8r	.	8r	.	8r	.
=163	=163	=163	=163	=163	=163	=163	=163	=163	=163	=163	=163	=163	=163
4D\	.	4ff#/ 4a/ 4d/	.	4ff#/ 4a/ 4d/	.	4F#/	.	4d\	.	4ff#\	.	4ddd\	.
8r	.	8r	.	8r	.	8r	.	8r	.	8r	.	8r	.
=:||:;	=:||:;	=:||:;	=:||:;	=:||:;	=:||:;	=:||:;	=:||:;	=:||:;	=:||:;	=:||:;	=:||:;	=:||:;	=:||:;
*-	*-	*-	*-	*-	*-	*-	*-	*-	*-	*-	*-	*-	*-
!!!system-decoration: [(s1,s2)][(s3,s4)][(s5,s6,s7)]
!!!RDF**kern: > = above
!!!RDF**kern: < = below
!!!RDF**dynam: p = p&colon;
!!!RDF**dynam: f = for
!!!EED: Leszek Kubiak
!!!EST: 2020-12-04
!!!AIN: 1 bass 1 cor 1 empty 2 oboe 2 violn
!!!ENC: Andrzej Borzym
!!!END: 2020-04-30
